/* XPM */
static char *cacodemon[] = {
/* columns rows colors chars-per-pixel */
"64 64 23 1 ",
"  c #FF00FF",
"  c #645A46",
". c #A31717",
"X c #AB1F1F",
"o c #AD2121",
"* c #B02424",
"O c #A91D1D",
"o c #A71B1B",
"O c #A41818",
"+ c #AA1E1E",
"@ c #A81C1C",
"# c #B22626",
"$ c #A51919",
"% c #A61A1A",
"& c #B12525",
"= c #AE2222",
"- c #AC2020",
"; c #AF2323",
": c #A21616",
"> c #F0DCDC",
"< c #E628C8",
", c #140000",
"1 c #DCDCC8",
/* pixels */
"                                                                ",
"                                                                ",
"                                                                ",
"                                                                ",
"                                                                ",
"                                                                ",
"                                                                ",
"                                                                ",
"                                .                               ",
"                         X    oX*O    Xo                        ",
"                      O+@#    $OO%    &+.XO                     ",
"                    =#o-;=    .@Oo    :%O#@%=                   ",
"                  =O#o.XO;$X+;%#oX*.XO=O&$O&O:=                 ",
"                 *O#:@#.OO-#OoO@X%-+*OoO+;o+%=@o                ",
"               %:$o-:-:$*+o%:O+-o;X;#+OOo@O;.oO=:O              ",
"              .=;@%O&-o@::*-@XO%$##;o:=-+Xo-O$-O*&*             ",
"             oO$o--X-O;X&OX&O%O$o#+=@;O@.&o@O##@OO+=            ",
"            *OoO&#$$OOXoO.-@+&XOX#@OO@&=X;O:o#$O;+X#$           ",
"           $o&o:=o%O...-&+.O$*$X-&&.%o#*O@%;XO%X%O=+#%          ",
"           :-;.*.#o+##++*#&;::oX>=:&O==#$#oO#X$:-#%*O;          ",
"          O*@#X#;;:.$*o-+O$X>>>>>>>>>%%+:%:+*:oo&=$.O$+         ",
"         =$*+;+&@:$=o=X+:X->>>>>>>>>>>O-%@.;:O#$*+&&@XXX        ",
"         &#=X%+#++#=:O%+.X>>>>>><>>>>>>++$+Xo&#&o.=OooOo        ",
"        OO+o.-*Oo+X@=.#%+>>>>><<<<<>>>>>oO.oO:o%#;XO;;;o&       ",
"        -OO;OX;Oo;@-O.-oO>>>><<<<<<<>>>>=%:@O&$%O:o=OoXO$       ",
"        Ooo=%-:*oo##;O-X&>>>><<<<<<<>>>>%&&o%+:.:++@O-O&*       ",
"       ++;o*O*#=-&$@#+$#>>>><<<<<<<<<>>>>oO-ooo$Oo:&O#o;:o      ",
"       *+OX&oX.%OOOo;oXX#>>>><<<<<<<>>>>X%O-;O#;+$O$*oX:*O      ",
"       X+%=&&oo.;%-o%X;O;>>>><<<<<<<>>>>o;&O%:=;@#-&$#oO.X      ",
"       o.%@;@O-;#;@=-o%+=>>>>><<<<<>>>>>%##-O;XOX#:$;OO&#@      ",
"       O+*$=++#oO@;+O%o%O.>>>>>><>>>>>>oo=@%@XO=Oo@*:Oo=::      ",
"       =#OO%O%&;+OX%$@OOO%o>>>>>>>>>>>+=:-oO%O.o*o*+=%;:O&      ",
"      @-+o@+XoX@o-&oX.*o&.oo>>>>>>>>>=@@o%*%%O+=#oO;;oX:%*o     ",
"       =O@o*o#XX=&XO:+.#@oOOo-*@>+O--@XXo:oO:@=o=&+OO@%=&-      ",
"       #=@o::$*o%=X-&O.:;#&=&*+o*@:o=;-&%O;$&o$=:o+:O*+%X*      ",
"       o$+$@+=*oXo&=*O:.;;==O-o:O=Oo*$X.#*oo-#O:o+o:=O$:@*      ",
"       *XX@:o-:&.=++.O=-=+.X;o$oO#X+=XOOoooooX$X@@$*:O*@%#      ",
"       +-*X-*XX%.*o+#*O=o#%.:+.$,OoO=$&.@=#@;oO+&=.XOoOO:;      ",
"       %&-%#$*oo:o@&$oX.&o=,,,,,,,,,,,%:=;.O*=:ooo+.#.&;-=      ",
"        :;o:*&+%=@O&X==O,,,,,,,,,,,,,,,,,@;@O$+#O#@o%@=%:       ",
"        =o:XO:$%:o$OX&:,,,,,,,,,,,,,,,,,,,;OoO%O@oO*OO@@-       ",
"        X&%Oo++O&-oX+o,,,,,,,,,,,,,,,,,,,,,&%:+&o#$*:o=Oo       ",
"         $:o:-%**-%;o,,,,,,,,,,,,,,,,,,,,,,,@-o:O.@o@#-+        ",
"         #;&;:&.;$@o,,,,,,,,,,,,,,,,,,,,,,,,,.+O$*O.:oo@        ",
"          o;.#oOX=-%,,11111111111111111111,,,;#@O#=-@-X         ",
"           .:%;#=o@=,,11111111111111111111,,,*#%#..%%o          ",
"           :O@XX;$O,,,,,,,,,,,,,,,,,,,,,,,,,,,:=O%+$$O          ",
"            o;$.=*$@,,,,,,,,,,,,,,,,,,,,,,,,,X+::Xo:%           ",
"             O$&X+#O,,,,,,,,,,,,,,,,,,,,,,,,,o:&+o*o            ",
"              *$=*:#,,,,,,,,,,,,,,,,,,,,,,,,,o.&@X@             ",
"               O&:%#=,,,,,,,,,,,,,,,,,,,,,,,&$%O*=              ",
"                 .&+=$,,,,,,,,,,,,,,,,,,,,,Ooo.@                ",
"                  *=&-o,,,,,,,,,,,,,,,,,,,=&+#$                 ",
"                    $Oo*,,,,,,,,,,,,,,,,,-&*-                   ",
"                      ==%-X,,,,,,,,,,,.%-=:                     ",
"                         &o.O=o=,o#$OO:=                        ",
"                                @                               ",
"                                                                ",
"                                                                ",
"                                                                ",
"                                                                ",
"                                                                ",
"                                                                ",
"                                                                "
};
