/* XPM */
static char *deco_warning_stripes[] = {
"64 64 3 1",
"b c #1a1a1a",
"g c #3a3a3a",
"y c #ffaa00",
"yyyyggggyyyyggggyyyyggggyyyyggggyyyyggggyyyyggggyyyyggggyyyygggg",
"yyyggggyyyyggggyyyyggggyyyyggggyyyyggggyyyyggggyyyyggggyyyyggggy",
"yyggggyyyyggggyyyyggggyyyyggggyyyyggggyyyyggggyyyyggggyyyyggggyy",
"yggggyyyyggggyyyyggggyyyyggggyyyyggggyyyyggggyyyyggggyyyyggggyyy",
"ggggyyyyggggyyyyggggyyyyggggyyyyggggyyyyggggyyyyggggyyyyggggyyyy",
"gggyyyyggggyyyyggggyyyyggggyyyyggggyyyyggggyyyyggggyyyyggggyyyyg",
"ggyyyyggggyyyyggggyyyyggggyyyyggggyyyyggggyyyyggggyyyyggggyyyygg",
"gyyyyggggyyyyggggyyyyggggyyyyggggyyyyggggyyyyggggyyyyggggyyyyggg",
"yyyyggggyyyyggggyyyyggggyyyyggggyyyyggggyyyyggggyyyyggggyyyygggg",
"yyyggggyyyyggggyyyyggggyyyyggggyyyyggggyyyyggggyyyyggggyyyyggggy",
"yyggggyyyyggggyyyyggggyyyyggggyyyyggggyyyyggggyyyyggggyyyyggggyy",
"yggggyyyyggggyyyyggggyyyyggggyyyyggggyyyyggggyyyyggggyyyyggggyyy",
"ggggyyyyggggyyyyggggyyyyggggyyyyggggyyyyggggyyyyggggyyyyggggyyyy",
"gggyyyyggggyyyyggggyyyyggggyyyyggggyyyyggggyyyyggggyyyyggggyyyyg",
"ggyyyyggggyyyyggggyyyyggggyyyyggggyyyyggggyyyyggggyyyyggggyyyygg",
"gyyyyggggyyyyggggyyyyggggyyyyggggyyyyggggyyyyggggyyyyggggyyyyggg",
"yyyyggggyyyyggggyyyyggggyyyyggggyyyyggggyyyyggggyyyyggggyyyygggg",
"yyyggggyyyyggggyyyyggggyyyyggggyyyyggggyyyyggggyyyyggggyyyyggggy",
"yyggggyyyyggggyyyyggggyyyyggggyyyyggggyyyyggggyyyyggggyyyyggggyy",
"yggggyyyyggggyyyyggggyyyyggggyyyyggggyyyyggggyyyyggggyyyyggggyyy",
"ggggyyyyggggyyyyggggyyyyggggyyyyggggyyyyggggyyyyggggyyyyggggyyyy",
"gggyyyyggggyyyyggggyyyyggggyyyyggggyyyyggggyyyyggggyyyyggggyyyyg",
"ggyyyyggggyyyyggggyyyyggggyyyyggggyyyyggggyyyyggggyyyyggggyyyygg",
"gyyyyggggyyyyggggyyyyggggyyyyggggyyyyggggyyyyggggyyyyggggyyyyggg",
"yyyyggggyyyyggggyyyyggggyyyyggggyyyyggggyyyyggggyyyyggggyyyygggg",
"yyyggggyyyyggggyyyyggggyyyyggggyyyyggggyyyyggggyyyyggggyyyyggggy",
"yyggggyyyyggggyyyyggggyyyyggggyyyyggggyyyyggggyyyyggggyyyyggggyy",
"yggggyyyyggggyyyyggggyyyyggggyyyyggggyyyyggggyyyyggggyyyyggggyyy",
"ggggyyyyggggyyyyggggyyyyggggyyyyggggyyyyggggyyyyggggyyyyggggyyyy",
"gggyyyyggggyyyyggggyyyyggggyyyyggggyyyyggggyyyyggggyyyyggggyyyyg",
"ggyyyyggggyyyyggggyyyyggggyyyyggggyyyyggggyyyyggggyyyyggggyyyygg",
"gyyyyggggyyyyggggyyyyggggyyyyggggyyyyggggyyyyggggyyyyggggyyyyggg",
"yyyyggggyyyyggggyyyyggggyyyyggggyyyyggggyyyyggggyyyyggggyyyygggg",
"yyyggggyyyyggggyyyyggggyyyyggggyyyyggggyyyyggggyyyyggggyyyyggggy",
"yyggggyyyyggggyyyyggggyyyyggggyyyyggggyyyyggggyyyyggggyyyyggggyy",
"yggggyyyyggggyyyyggggyyyyggggyyyyggggyyyyggggyyyyggggyyyyggggyyy",
"ggggyyyyggggyyyyggggyyyyggggyyyyggggyyyyggggyyyyggggyyyyggggyyyy",
"gggyyyyggggyyyyggggyyyyggggyyyyggggyyyyggggyyyyggggyyyyggggyyyyg",
"ggyyyyggggyyyyggggyyyyggggyyyyggggyyyyggggyyyyggggyyyyggggyyyygg",
"gyyyyggggyyyyggggyyyyggggyyyyggggyyyyggggyyyyggggyyyyggggyyyyggg",
"yyyyggggyyyyggggyyyyggggyyyyggggyyyyggggyyyyggggyyyyggggyyyygggg",
"yyyggggyyyyggggyyyyggggyyyyggggyyyyggggyyyyggggyyyyggggyyyyggggy",
"yyggggyyyyggggyyyyggggyyyyggggyyyyggggyyyyggggyyyyggggyyyyggggyy",
"yggggyyyyggggyyyyggggyyyyggggyyyyggggyyyyggggyyyyggggyyyyggggyyy",
"ggggyyyyggggyyyyggggyyyyggggyyyyggggyyyyggggyyyyggggyyyyggggyyyy",
"gggyyyyggggyyyyggggyyyyggggyyyyggggyyyyggggyyyyggggyyyyggggyyyyg",
"ggyyyyggggyyyyggggyyyyggggyyyyggggyyyyggggyyyyggggyyyyggggyyyygg",
"gyyyyggggyyyyggggyyyyggggyyyyggggyyyyggggyyyyggggyyyyggggyyyyggg",
"yyyyggggyyyyggggyyyyggggyyyyggggyyyyggggyyyyggggyyyyggggyyyygggg",
"yyyggggyyyyggggyyyyggggyyyyggggyyyyggggyyyyggggyyyyggggyyyyggggy",
"yyggggyyyyggggyyyyggggyyyyggggyyyyggggyyyyggggyyyyggggyyyyggggyy",
"yggggyyyyggggyyyyggggyyyyggggyyyyggggyyyyggggyyyyggggyyyyggggyyy",
"ggggyyyyggggyyyyggggyyyyggggyyyyggggyyyyggggyyyyggggyyyyggggyyyy",
"gggyyyyggggyyyyggggyyyyggggyyyyggggyyyyggggyyyyggggyyyyggggyyyyg",
"ggyyyyggggyyyyggggyyyyggggyyyyggggyyyyggggyyyyggggyyyyggggyyyygg",
"gyyyyggggyyyyggggyyyyggggyyyyggggyyyyggggyyyyggggyyyyggggyyyyggg",
"yyyyggggyyyyggggyyyyggggyyyyggggyyyyggggyyyyggggyyyyggggyyyygggg",
"yyyggggyyyyggggyyyyggggyyyyggggyyyyggggyyyyggggyyyyggggyyyyggggy",
"yyggggyyyyggggyyyyggggyyyyggggyyyyggggyyyyggggyyyyggggyyyyggggyy",
"yggggyyyyggggyyyyggggyyyyggggyyyyggggyyyyggggyyyyggggyyyyggggyyy",
"ggggyyyyggggyyyyggggyyyyggggyyyyggggyyyyggggyyyyggggyyyyggggyyyy",
"gggyyyyggggyyyyggggyyyyggggyyyyggggyyyyggggyyyyggggyyyyggggyyyyg",
"ggyyyyggggyyyyggggyyyyggggyyyyggggyyyyggggyyyyggggyyyyggggyyyygg",
"gyyyyggggyyyyggggyyyyggggyyyyggggyyyyggggyyyyggggyyyyggggyyyyggg"
};
