/* XPM */
static char *deco_slime_drip[] = {
"64 64 5 1",
"b c #3a3a3a",
"d c #008800",
"g c #00cc00",
"l c #00ff00",
"x c #00aa00",
"bbbbbbbbxxxxxbbbbbbbbxxxxxbbbbbxxxxxbbbbbbbbbbbbbbbbbbbbbbbbbbbb",
"bbbbbbbbxxxxxbbbbbbbbxxxxxbbbbbxxxxxbbbbbbbbbbbbbbbbbbbbbbbbbbbb",
"bbbbbbbbxxxxxbbbbbbbbxxxxxbbbbbxxxxxbbbbbbbbbbbbbbbbbbbbbbbbbbbb",
"bbbbbbbbxxxxxbbbbbbbbxxxxxbbbbbxxxxxbbbbbbbbbbbbbbbbbbbbbbbbbbbb",
"bbbbbbbbxxxxxbbbbbbbbxxxxxbbbbbxxxxxbbbbbbbbbbbbbbbbbbbbbbbbbbbb",
"bbbbbbbbxxxxxbbbbbbbbxxxxxbbbbbxxxxxbbbbbbbbbbbbbbbbbbbbbbbbbbbb",
"bbbbbbbxxxxxxxbbbbbbxxxxxxxbbbxxxxxxxbbbbbbbbbbbbbbbbbbbbbbbbbbb",
"bbbbbbbxxxxxxxbbbbbbxxxxxxxbbbxxxxxxxbbbbbbbbbbbbbbbbbbbbbbbbbbb",
"bbbbbbbxxxxxxxbbbbbbxxxxxxxbbbxxxxxxxbbbbbbbbbbbbbbbbbbbbbbbbbbb",
"bbbbbbbxxxxxxxbbbbbbxxxxxxxbbbxxxxxxxbbbbbbbbbbbbbbbbbbbbbbbbbbb",
"bbbbbbbxxxxxxxbbbbbbxxxxxxxbbbxxxxxxxbbbbbbbbbbbbbbbbbbbbbbbbbbb",
"bbbbbbbxxxxxxxbbbbbbxxxxxxxbbbxxxxxxxbbbbbbbbbbbbbbbbbbbbbbbbbbb",
"bbbbbbbxxxxxxxbbbbbbxxxxxxxbbbxxxxxxxbbbbbbbbbbbbbbbbbbbbbbbbbbb",
"bbbbbbbxxxxxxxbbbbbbxxxxxxxbbbxxxxxxxbbbbbbbbbbbbbbbbbbbbbbbbbbb",
"bbbbbbxxxxxxxxxbbbbxxxxxxxxxbxxxxxxxxxbbbbbbbbbbbbbbbbbbbbbbbbbb",
"bbbbbbxxxxxxxxxbbbbxxxxxxxxxbxxxxxxxxxbbbbbbbbbbbbbbbbbbbbbbbbbb",
"bbbbbbxxxxxxxxxbbbbxxxxxxxxxbxxxxxxxxxbbbbbbbbbbbbbbbbbbbbbbbbbb",
"bbbbbbxxxxxxxxxbbbbxxxxxxxxxbxxxxxxxxxbbbbbbbbbbbbbbbbbbbbbbbbbb",
"bbbbbbxxxxxxxxxbbbbxxxxxxxxxbxxxxxxxxxbbbbbbbbbbbbbbbbbbbbbbbbbb",
"bbbbbbxxxxxxxxxbbbbxxxxxxxxxbxxxxxxxxxbbbbbbbbbbbbbbbbbbbbbbbbbb",
"bbbbbbxxxxxxxxxbbbbxxxxxxxxxbxxxxxxxxxbbbbbbbbbbbbbbbbbbbbbbbbbb",
"bbbbbxxxxxxxxxxxbbxxxxxxxxxxxxxxxxxxxxxbbbbbbbbbbbbbbbbbbbbbbbbb",
"bbbbbxxxxxxxxxxxbbxxxxxxxxxxxxxxxxxxxxxbbbbbbbbbbbbbbbbbbbbbbbbb",
"bbbbbxxxxxxxxxxxbbxxxxxxxxxxxxxxxxxxxxxbbbbbbbbbbbbbbbbbbbbbbbbb",
"bbbbbxxxxxxxxxxxbbxxxxxxxxxxxxxxxxxxxxxbbbbbbbbbbbbbbbbbbbbbbbbb",
"bbbbbxxxxxxxxxxxbbxxxxxxxxxxxxxxxxxxxxxbbbbbbbbbbbbbbbbbbbbbbbbb",
"bbbbbxxxxxxxxxxxbbxxxxxxxxxxxxxxxxxxxxxbbbbbbbbbbbbbbbbbbbbbbbbb",
"bbbbbxxxxxxxxxxxbbxxxxxxxxxxxxxxxxxxxxxbbbbbbbbbbbbbbbbbbbbbbbbb",
"bbbbbxxxxxxxxxxxbbxxxxxxxxxxxxxxxxxxxxxbbbbbbbbbbbbbbbbbbbbbbbbb",
"bbbbxxxxxxxxxxxxxxxxxxxxxxxxxxxxxxxxxxxxbbbbbbbbbbbbbbbbbbbbbbbb",
"bbbbxxxxxxxxxxxxxxxxxxxxxxxxxxxxxxxxxxxxbbbbbbbbbbbbbbbbbbbbbbbb",
"bbbbxxxxxxxxxxxxxxxxxxxxxxxxxxxxxxxxxxxxbbbbbbbbbbbbbbbbbbbbbbbb",
"bbbbxxxxxxxxxxxxxxxxxxxxxxxxxxxxxxxxxxxxbbbbbbbbbbbbbbbbbbbbbbbb",
"bbbbxxxxxxxxxxxxxxxxxxxxxxxxxxxxxxxxxxxxbbbbbbbbbbbbbbbbbbbbbbbb",
"bbbbxxxxxxxxxxxxxxxxxxxxxxxxxxxxxxxxxxxxbbbbbbbbbbbbbbbbbbbbbbbb",
"bbbbxxxxxxxxxxxxxxxxxxxxxxxxxxxxxxxxxxxxbbbbbbbbbbbbbbbbbbbbbbbb",
"bbbbxxxxxxxxxxxxxxxxxxxxxxxxxxxxxxxxxxxxbbbbbbbbbbbbbbbbbbbbbbbb",
"bbbxxxxxxxxxxxxxxxxxxxxxxxxxxxxxxxxxxxxxxbbbbbbbbbbbbbbbbbbbbbbb",
"bbbxxxxxxxxxxxxxxxxxxxxxxxxxxxxxxxxxxxxxxbbbbbbbbbbbbbbbbbbbbbbb",
"bbbxxxxxxxxxxxxxxxxxxxxxxxxxxxxxxxxxxxxxxbbbbbbbbbbbbbbbbbbbbbbb",
"bbbxxxxxxxxxxxxxxxxxxxxxxxxxxxxxxxxxxxxxxbbbbbbbbbbbbbbbbbbbbbbb",
"bbbxxxxxxxxxxxxxxxxxxxxxxxxxxxxxxxxxxxxxxbbbbbbbbbbbbbbbbbbbbbbb",
"bbbxxxxxxxxxxxxxxxxxxxxxxxxxxxxxxxxxxxxxxbbbbbbbbbbbbbbbbbbbbbbb",
"bbbxxxxxxxxxxxxxxxxxxxxxxxxxxxxxxxxxxxxxxbbbbbbbbbbbbbbbbbbbbbbb",
"bbxxxxxxxxxxxxxxxxxxxxxxxxxxxxxxxxxxxxxxxxbbbbbbbbbbbbbbbbbbbbbb",
"bbxxxxxxxxxxxxxxxxxxxxxxxxxxxxxxxxxxxxxxxxbbbbbbbbbbbbbbbbbbbbbb",
"bbxxxxxxxxxxxxxxxxxxxxxxxxxxxxxxxxxxxxxxxxbbbbbbbbbbbbbbbbbbbbbb",
"bbxxxxxxxxxxxxxxxxxxxxxxxxxxxxxxxxxxxxxxxxbbbbbbbbbbbbbbbbbbbbbb",
"bbxxxxxxxxxxxxxxxxxxxxxxxxxxxxxxxxxxxxxxxxbbbbbbbbbbbbbbbbbbbbbb",
"bbxxxxxxxxxxxxxxxxxxxxxxxxxxxxxxxxxxxxxxxxbbbbbbbbbbbbbbbbbbbbbb",
"bbxxxxxxxxxxxxxxxxxxxxxxxxxxxxxxxxxxxxxxxxbbbbbbbbbbbbbbbbbbbbbb",
"bbxxxxxxxxxxxxxxxxxxxxxxxxxxxxxxxxxxxxxxxxbbbbbbbbbbbbbbbbbbbbbb",
"bxxxxxxxxxxxxxxxxxxxxxxxxxxxxxxxxxxxxxxxxxxbbbbbbbbbbbbbbbbbbbbb",
"bxxxxxxxxxxxxxxxxxxxxxxxxxxxxxxxxxxxxxxxxxxbbbbbbbbbbbbbbbbbbbbb",
"bxxxxxxxxxxxxxxxxxxxxxxxxxxxxxxxxxxxxxxxxxxbbbbbbbbbbbbbbbbbbbbb",
"bxxxxxxxxxxxxxxxxxxxxxxxxxxxxxxxxxxxxxxxxxxbbbbbbbbbbbbbbbbbbbbb",
"bxxxxxxxxxxxxxxxxxxxxxxxxxxxxxxxxxxxxxxxxxxbbbbbbbbbbbbbbbbbbbbb",
"bxxxxxxxxxxxxxxxxxxxxxxxxxxxxxxxxxxxxxxxxxxbbbbbbbbbbbbbbbbbbbbb",
"bxxxxxxgggggggxxxxxxggggxxxxxxgggggggxxxxxxbbbbbbbbbbbbbbbbbbbbb",
"bxxxxxggggggggxxxxxgggggxxxxxgggggggggxxxxxbbbbbbbbbbbbbbbbbbbbb",
"bxxxxgggggggggxxxxggggggxxxxgggggggggggxxxxbbbbbbbbbbbbbbbbbbbbb",
"bxxxxggglllllgxxxxggglllxxxxggglllllgggxxxxbbbbbbbbbbbbbbbbbbbbb",
"bxxxxggglllllgxxxxggglllxxxxggglllllgggxxxxbbbbbbbbbbbbbbbbbbbbb",
"bxxxxggglllllgxxxxggglllxxxxggglllllgggxxxxbbbbbbbbbbbbbbbbbbbbb"
};
