/* XPM */
static char *deco_tech_decal[] = {
"64 64 4 1",
"b c #1a1a1a",
"d c #0a0a0a",
"g c #00ff00",
"y c #ffff00",
"bbbbbbbbbbgbbbbbbbbbbbbbbbbbbbbbbbbbbbbbbbbbbbbbbbbbbbbbbbbbbbbb",
"bbbbbbbbbbgbbbbbbbbbbbbbbbbbbbbbbbbbbbbbbbbbbbbbbbbbbbbbbbbbbbbb",
"bbbbbbbbbbgbbbbbbbbbbbbbbbbbbbbbbbbbbbbbbbbbbbbbbbbbbbbbbbbbbbbb",
"bbbbbbbbbbgbbbbbbbbbbbbbbbbbbbbbbbbbbbbbbbbgbbbbbbbbbbbbbbbbbbbb",
"bbbbbbbbbbgbbbbbbbbbbbbbbbbbbbbbbbbbbbbbbbbgbbbbbbbbbbbbbbbbbbbb",
"bbbbbbbbbbgbbbbbbbbbbbbbbbbbbbbbbbbbbbbbbbbgbbbbbbbbbbbbbbbbbbbb",
"bbbbbbbbbbgbbbbbbbbbbbbbbbbbbbbbbbbbbbbbbbbgbbbbbbbbbbbbbbbbbbbb",
"gggggggggggggggggggggggggbbbbbbbbbbbbbbbbbbgbbbbbbbbbbbbbbbbbbbb",
"bbbbbbbbbbgbbbbbbbbbbbbbbbbbbbbbbbbbbbbbbbbgbbbbbbbbbbbbbbbbbbbb",
"bbbbbbbbbbgbbbbbbbbbbbbbbbbbbbbbbbbbbbbbbbbgbbbbbbbbbbbbbbbbbbbb",
"bbbbbbbbbbgbbbbbbbbbbbbbbbbbbbbbbbbbbbbbbbbgbbbbbbbbbbbbbbbbbbbb",
"bbbbbbbbbbgbbbbbbbbbbbbbbbbbbbbbbbbbbbbbbbbgbbbbbbbbbbbbbbbbbbbb",
"bbbbbbbbbbgbbbbbbbbbbbbbbbbbbbbbbbbbbbbbbbbgbbbbbbbbbbbbbbbbbbbb",
"bbbbbbbbbbgbbbbbbbbbbbbbbbbbbbbbbbbbbbbbbbbgbbbyyyyyyyybbbbbbbbb",
"bbbbbbbbbbgbbbyyyyyyyybbbbbbbbbbbbbbbbbbbbbgbbbyyyyyyyybbbbbbbbb",
"bbbbbbbbbbgbbbyyyyyyyybbbbbbbbbbbbbbbbbbbbbgbbbyyyyyyyybbbbbbbbb",
"bbbbbbbbbbgbbbyyyyyyyybbbbbbbbbbbbbbbbbbbbbgbbbyyyyyyyybbbbbbbbb",
"bbbbbbbbbbgbbbyyyyyyyybbbbbbbbbbbbbbbbbbbbbgbbbyyyyyyyybbbbbbbbb",
"bbbbbbbbbbgbbbyyyyyyyybbbbbbgggggggggggggggggggyyyyyyyygggbbbbbb",
"bbbbbbbbbbgbbbyyyyyyyybbbbbbbbbbbbbbbbbbbbbgbbbbbbbbbbbbbbbbbbbb",
"bbbbbbbbbbgbbbbbbbbbbbbbbbbbbbbbbbbbbbbbbbbgbbbbbbbbbbbbbbbbbbbb",
"bbbbbbbbbbgbbbbbbbbbbbbbbbbbbbbbbbbbbbbbbbbgbbbbbbbbbbbbbbgbbbbb",
"bbbbbbbbbbbbbbbbbbbbbbbbbbbbbbbbbbbbbbbbbbbgbbbbbbbbbbbbbbgbbbbb",
"bbbbbbbbbbbbbbbbbbbbbbbbbbbbbbbbbbbbbbbbbbbgbbbbbbbbbbbbbbgbbbbb",
"bbbbbbbbbbbbbbbbbbbbbbbbbbbbbbbbbbbbbbbbbbbgbbbbbbbbbbbbbbgbbbbb",
"bbbbbbbbbbbbbbbbbbbbbbbbbbbbbbbbbbbbbbbbbbbgbbbbbbbbbbbbbbgbbbbb",
"bbbbbbbbbbbbbbbbbbbbbbbbbbbbbbbbbbbbbbbbbbbgbbbbbbbbbbbbbbgbbbbb",
"bbbbbbbbbbbbbbbbbbbbbbbbbbbbbbbbbbbbbbbbbbbgbbbbbbbbbbbbbbgbbbbb",
"bbbbbbbbbbbbbbbbbbbbbbbbbbbbbbbbbbbbbbbbbbbgbbbbbbbbbbbbbbgbbbbb",
"bbbbbbbbbbbbbbbbbbbbbyyyyyyyybbbbbbbbbbbbbbgbbbbbbbbbbbbbbgbbbbb",
"bbbbbbbbbbbbbbbbbbbbbyyyyyyyybbbbbbbbbbbbbbgbbbbbbbbbbbbbbgbbbbb",
"bbbbbbbbbbbbbbbbbbbbbyyyyyyyybbbbbbbbbbbbbbgbbbbbbbbbbbbbbgbbbbb",
"bbbbbbbbbbbbbbbbbbbbbyyyyyyyybbbbbbbbbbbbbbgbbbbbbbbbbbbbbgbbbbb",
"bbbbbbbbbbbbbbbbbbbbbyyyyyyyybbbbbbbbbbbbbbbbbbbbbbbbbbbbbgbbbbb",
"bbbbbbbbbbbbbbbbbbbbbyyyyyyyybbbbbbbbbbbbbbbbbbbbbbbbbbbbbgbbbbb",
"bbbbbbbbbbbbbbbbbbbbbgbbbbbbbbbbbbbbbbbbbbbbbbbbbbbbbbbbbbgbbbbb",
"bbbbbbbbbbbbbbbbbbbbggbbbbbbbbbbbbbbbbbbbbbggggggggggggggggggggg",
"bbbbbbbbbbbbbbbbbbbbggbbbbbbbbbbbbbbbbbbbbbbbbbbbbbbbbbbbbgbbbbb",
"bbbbbbbbbbbbbbbbbbbbggbbbbbbbbbbbbbbbbbbbbbbbbbbbbbbbbbbbbgbbbbb",
"bbbbbbgbbbbbbbbbbbbbggbbbbbbbbbbbbbbbbbbbbbbbbbbbbbbbbbbbbgbbbbb",
"bbbbbbgbbbbbbbbbbbbbggbbbbbbbbbbbbbbbbbbbbbbbbbbbbbbbbbbbbgbbbbb",
"bbbbbbgbbbbbbbbbbbbbggbbbbbbbbbbbbbbbbbbbbbbbbbbbbbbbbbbbbgbbbbb",
"bbbbbbgbbbbbyyyyyyyyggbbbbbbbbbbbbbbbbbbbbbgbbbbbbbbbbbbbbgbbbbb",
"bbbbbbgbbbbbyyyyyyyyggbbbbbbbbbbbbbbbbbbbbbgbbbbbbbbbbbbbbgbbbbb",
"bbbbbbggggggyyyyyyyyggggggggggggggggbbbbbbbgbbbbbbbbbbbbbbgbbbbb",
"bbbbbbgbbbbbyyyyyyyyggbbbbbbbbbbbbbbbbbbbbbgbbbbbbbbbbbbbbgbbbbb",
"bbbbbbgbbbbbyyyyyyyyggbbbbbbbbbbbbbbbbbbbbbgbbbbbbbbbbbbbbgbbbbb",
"bbbbbbgbbbbbyyyyyyyyggbbbbbbbbbbbbbbbbbbbbbgbbbbbbbbbbbbbbgbbbbb",
"bbbbbbgbbbbbbbbbbbbbggbbbbbbbbbbbbbbbbbbbbbgbbbbbbbbbbbbbbgbbbbb",
"bbbbbbgbbbbbbbbbbbbbggbbbbbbbbbbbbbbbbbbbbbgbbbbbbbbbbbbbbgbbbbb",
"bbbbbbgbbbbbbbbbbbbbggbbbbbbbbbbbbbbbbbbbbbgbbbbbbbbbbbbbbgbbbbb",
"bbbbbggggggggggggggggggggggggggggggbbbbbbbbgbbbbbbbbbbbbbbbbbbbb",
"bbbbbbgbbbbbbbbbbbbbggbbbbbbbbbbbbbbbbbbbbbgbbbbbbbbbbbbbbbbbbbb",
"bbbbbbgbbbbbbbbbbbbbggbbbbbbbbbbbbbbbbbbbbbgbbbbbbbbbbbbbbbbbbbb",
"ggggggggggggggggggggggbbbbbbbbbbbbbbbbbbbbbgbbbbbbbbbbbbbbbbbbbb",
"bbbbbbgbbbbbbbbbbbbbggbbbbbbbbbbbbbbbbbbbbbgbbbbbbbbbbbbbbbbbbbb",
"bbbbbbgbbbbbbbbbbbbbggbbbbbbbbbbbbbbbbbbbbbgbbbbbbbbbbbbbbbbbbbb",
"bbbbbbgbbbbbbbbbbbbbggbbbbbbggggggggggggggggggggggggggggggbbbbbb",
"bbbbbbgbbbbbbbbbbbbbggbbbbbbbbbbbbbbbbbbbbbgbbbbbbbbbbbbbbbbbbbb",
"bbbbbbgbbbbbbbbbbbbbgbbbbbbbbbbbbbbbbbbbbbbgbbbbbbbbbbbbbbbbbbbb",
"bbbbbbgbbbbbbbbbbbbbgbbbbbbbbbbbbbbbbbbbbbbgbbbbbbbbbbbbbbbbbbbb",
"bbbbbbgbbbbbbbbbbbbbgbbbbbbbbbbbbbbbbbbbbbbgbbbbbbbbbbbbbbbbbbbb",
"bbbbbbgbbbbbbbbbbbbbgbbbbbbbbbbbbbbbbbbbbbbgbbbbbbbbbbbbbbbbbbbb",
"bbbbbbgbbbbbbbbbbbbbgbbbbbbbbbbbbbbbbbbbbbbgbbbbbbbbbbbbbbbbbbbb"
};
