/* XPM */
static char *imp[] = {
/* columns rows colors chars-per-pixel */
"64 64 52 1 ",
"  c #FF00FF",
"  c #462814",
". c #764E30",
"X c #663E20",
"o c #734B2D",
"* c #6C4426",
"O c #653D1F",
"o c #643C1E",
"O c #684022",
"+ c #6F4729",
"@ c #6E4628",
"# c #6A4224",
"$ c #71492B",
"% c #754D2F",
"& c #673F21",
"= c #774F31",
"- c #724A2C",
"; c #6D4527",
": c #785032",
"> c #744C2E",
"< c #6B4325",
", c #694123",
"1 c #70482A",
"2 c #E6C814",
"3 c #7B5335",
"4 c #61391B",
"5 c #7C5436",
"6 c #633B1D",
"7 c #60381A",
"8 c #7A5234",
"9 c #795133",
"0 c #4D2F1B",
"a c #3F210D",
"b c #432511",
"c c #40220E",
"d c #482A16",
"e c #4E301C",
"f c #472915",
"g c #623A1C",
"h c #4C2E1A",
"i c #3D1F0B",
"j c #492B17",
"k c #50321E",
"l c #3C1E0A",
"m c #3E200C",
"n c #4A2C18",
"o c #442612",
"p c #4F311D",
"q c #422410",
"r c #4B2D19",
"s c #41230F",
"t c #452713",
/* pixels */
"                                                                ",
"                                                                ",
"                                                                ",
"                                                                ",
"                                                                ",
"                                .                               ",
"                            Xo*OoO.o+                           ",
"                           @o*o#$%%&#.                          ",
"                          %*=X$@X+$*-&                          ",
"                          ;&O.#:+o#>.:                          ",
"                          <=$;+.&X>>#&                          ",
"                          o<O=#>o#,o:@                          ",
"                       ;+1>1;OoO,$=1&-<X=-                      ",
"                       -1X>$o;$X#*-o,oo%&*                      ",
"                       .+#*222>*$$222=oooO                      ",
"                       1o;:222,=1=2221o,;%                      ",
"                      o=-O,222&++o222O*=o$>                     ",
"                       oXo<&++O:<=@OO:&&O:                      ",
"                       o-X:o%O=X,=:*:-oo:O                      ",
"                       #-o--%*o.X;+;+OX>**                      ",
"                       *o$-+OX<=:<%O,@+OO#                      ",
"                        $@X,&1%O-o:XOX+>o                       ",
"                        ,>O,;O>.1<<.O$,@<                       ",
"                         %.o.1#@1>-o1>%O                        ",
"                          <:%+*,O,:O1XO                         ",
"                           oOoO&:%&+=O                          ",
"                    =-34O5%@66.O4%7:8%=;>.,O                    ",
"                    @&X83>:$9>XO-7O19==.3%#:                    ",
"            0abcdbef1g-o>4<<.6&:7<.#;%84<o77hijklkmm            ",
"            nekoepqe#g+7@8Og%-oO&oo;$O&%*o;-apqhahee            ",
"            bljbdeak1>8+OOo,54X:@69O-6971O6or snqlb             ",
"            i frkojd-*++331:.$99+X8>5*o:@337q0etcpll            ",
"            tfhefeij#;O#o,<-3%<&7:,Og;oo:&>gtadhqqj0            ",
"            kestterbX*;o:8o1411:+<5#8.-*3O>%p0kprmjp            ",
"            anesfejn9gOo46-oo=o81169.::gg8%:0scpqktj            ",
"             mnjrlap6X<#O=8&OO&>o3+=@o6=oo@9tdinqqtb            ",
"            mrjkiklhX-<=o#>OgO:745>7+>@#47O5jfik ffd            ",
"            hffssr0m=6*o#6=83<o8:o<%:+=*97$5jfhjtcpk            ",
"            depalfkb8o6@<75o%$+Og+6*.X9$3O@#pokqpnhs            ",
"            p0ophodfO9$:<,$.5O@$5.:41=&%o715k0lcmb0o            ",
"            lpfjtsrf8+$$OO34#73X-,XoO4O=,.5<nplq0ti0            ",
"            il0qlilrX.=Oo7g858<-O<O+>&+*5$o<irdaf ct            ",
"            ka0jr rq6>=g;4-5oXo@O&>4+%>181O10leocok             ",
"            qfcaqiboO><,9;=<6:$;5>OO4>1#8%14mkhpfaep            ",
"            jbfrfcfkg%64@;$gO%O<7gO.,<**-.38lbtpqqmj            ",
"            oq0ihqqd.g=6,9+@=O5,&:74:1$3*o&9lpf qejd            ",
"                    ,>>3=576O9o$67*O+Xg=O:O5                    ",
"                    oo6379Xo#5;5.+o-+@#o@X9O                    ",
"                      aabtetfb   ncmjbhqr                       ",
"                      bjjftbcqh  anf0mffqm                      ",
"                      ascajjhn   ofsqmjjso                      ",
"                      etrrdhnta  jrdso shr                      ",
"                      crensehdb  sdjtmr sb                      ",
"                      scsoo0tmj  mammdchaq                      ",
"                      baanmfhso    ftttde                       ",
"                      0bmm0jtqh  bacthsen0                      ",
"                      nrtdosnha  ndqecq ta                      ",
"                      of s tdjf  tdmnjdbho                      ",
"                       nrdhjosr  sdbqoqcb0                      ",
"                       ctjeacsb  tremhhasd                      ",
"                      medmraqom  md0htcrnm                      ",
"                      s botsomd  0qmhamscc                      ",
"                                                                ",
"                                                                "
};
