/* XPM */
static const char *laptop_table_xpm[] = {
"64 64 16 1",
"  c #FFFFFF",
". c #BB8028",
"+ c #B67210",
"@ c #7A9296",
"# c #7E7352",
"$ c #96631A",
"% c #83541B",
"& c #615844",
"* c #41516E",
"= c #753F1E",
"- c #543A20",
"; c #3A3939",
": c #2D2B2A",
", c #202324",
"< c #231F20",
"> c #221C1F",
"                                                                ",
"                                                                ",
"                                                                ",
"                                                                ",
"                                                                ",
"                                                                ",
"                                                                ",
"                                                                ",
"                                                                ",
"                                                                ",
"                ><<<<<<<<<<<<<<<<<                              ",
"               ;;;;;;;;;;;::::::::;                             ",
"               <;;;;;;;;;;;;;;;:;;<                             ",
"               <;;::::::::::::::;;<                             ",
"               <;;:***@@****@@@:;;<                             ",
"               <;;:*@@@****@@@*:;;<                             ",
"               <;;:*@@@****@@@*:;;<                             ",
"               <;;:@@@****@@***::;<       <<<<<<<<<<            ",
"               <;;:@****@@@****:;;<       <*@#**@**<            ",
"               <;;:****@@@*****:;;<       <*@@**@@*<            ",
"               <;;:****@@@*****::;<       <*@@**@@*>            ",
"               <;;;::::::::::::;;;<    <<>@====@=:<             ",
"               <;;;;;;;;;;;;:::;;;<    <$$@$$$$@$-<             ",
"              >####################>    >>&@%%%&@&&>            ",
"              <####################>    <>;@;;;;@&;<            ",
"               >@@@@@@@&&&&@@@@@@@,     <>#@####@##>            ",
"            <<<====================<<<<<<<<<<<<<<<<<<&          ",
"           >..........++++++++++++++++$$$$$$$$$$$$$$$=>         ",
"           <..........++++++++++++++++$$$$$$$$$$$$$$$-<         ",
"           <..............+++++++++++++++++$$$$$$$$$$-<         ",
"            ><%%%%%%%%%===================----------<&          ",
"            >,+%$$$$$$%%%%%%%%%%%%%%==%==========--=<&          ",
"            >,+%$$$$$$%%%%%%%%%%%%%%==%==========--=<&          ",
"            >,+%$$$$$$$$$$%%%%%%%%%%==%%%%%======--=<&          ",
"            >,+%><<<<<<<<<<,,,,,,,,,==%====-----=--=<&          ",
"            >,+,                    >>+=+++++++-+%=+<&          ",
"            >,+<                    >>+=+++++++-+%=+<&          ",
"            >,+<                    >>++=======++%=+<&          ",
"            >,+<                    >>++%%%%%%%++%=+<&          ",
"            >,+<                      <<<<<<<<<<<-=+<&          ",
"            >,+<                      >>>>>>>>>>>--+<&          ",
"            >,+<                                 ;<+<&          ",
"            >,+<                                 ;<+<&          ",
"            >,+<                                 ;<+<&          ",
"            >,+<                                 ;<+<&          ",
"            >,+<                                 ;<+<&          ",
"            >,+<                                 ;<+<&          ",
"            >,+<                                 ;<+<&          ",
"            >,+<                                 ;<+<&          ",
"            >,+<                                 ;<+<&          ",
"            >,+<                                 ;<+<&          ",
"              <                                    >            ",
"              ;                                    ;            ",
"                                                                ",
"                                                                ",
"                                                                ",
"                                                                ",
"                                                                ",
"                                                                ",
"                                                                ",
"                                                                ",
"                                                                ",
"                                                                ",
"                                                                "
};