/* XPM */
static char *level1_concrete[] = {
"64 64 5 1",
"c c #8b8b8b",
"d c #6a6a6a",
"l c #a8a8a8",
"s c #4a4a4a",
"x c #5a5a5a",
"scccddddxcccddddccclddddcccsldddccccdddlccccddddclccddddccccdsdd",
"lclcddddcsxcddddccccddddccclddddccccddddccccddddcccclsddccccdddd",
"cxccdddxccccdddsccccldddccccddddccccddddccccdxddccccddddccccdddd",
"ccccddddccccdddsccccddddccccddddccccddddccccddddccccddddcccldsdd",
"ddddclclddddcsccldddccccddddccccddddccxcdsddccccddddcccxddlxclcc",
"ddddccccddddxclcldddccccddddccccddddccccddddccccddddccccddddcxcc",
"ddddccccddddcxccldddccccsdddccscddddccccddldccccddddccccddddccxc",
"ddddccccddddccccddldccccsddxcsccldddclccddddccccddddccccddddcccc",
"lccsldddcccclddscxccddddccccddddccccddddccccddddccccxdddxcccdddd",
"cccclddllcccdddslcccddddccccdsddccccdddxccccddddccccldddccccdddd",
"ccccddsxccccddddlcccddddccscddddccccxdddccccddddccccxdddccccdddd",
"xccclxddccccddldlsccddddccxxddddccccddddccccddddcccxddddllccddsd",
"ddddclccddddccclddddccccddddcccsddddscccddddccccsdddcccxldddlccc",
"ddddccclddddllccddddccccddddccccddddcclcldddccccxdddccccddddcccc",
"lddxxcccldddccccddddcclcddddccxlldddcccsdlldccccddddccccddddcclc",
"xdddclccddddccccddddccccxdddccccddddccccdsddccxcddddccccddddcccc",
"ccccdlxdccccddddccccldddcclcldddccccddddccccldddccccsdddccccdddd",
"cccclddlccccddddccccsdddccccddddccclddddcccxldddccccddddccxcdddd",
"ccccdxddccccddddccccddddlcccddddccccddddccccddddccscddddccccdddd",
"ccccddddccccddddccccddddccccddddccccddddccccddddccccddddccccdddd",
"ldddclccddddccccddddccccddddccccddddccccddddcccsddldcxccddddcccc",
"ddddccccdsxlccccddddccccddxdccccddddccccddddxxccdsddcccsddddcccc",
"ddddccccddddccccddddccccddddccccddddccccddddccccddddccccddddccxc",
"dldxccccddddccccddldccccddddlcccddddccccdlddccccldddccccldddcccc",
"clccldddcclcdlddcclcddddcsccddddccccxdddccccddldccccxdddcclcdddl",
"clccddddclccddddcccldlddcxccddddccccddddccccldddccccddddcclcdddd",
"clccddddcsccddddccccddxdccccddddccccddsdccccddddcccclddlccccdddd",
"ccccddddccccddddcclcddddccccddddcccxddddclccddddccccddldccccdddd",
"ddddccscddddcccsddldccccddddccccddldccccddldccccddddccccxdddcccc",
"ddddccccddsdccccdddllcccddddccccddddccccddddlcccddddccccddddcccc",
"ddddccccddddccccddddccccsdddccccddddccccddddccccddddlcscddddxccc",
"ddddcccxldddccccddddccccddddccccddddccccddddccccddddccccdxddlccl",
"ccccddddccccddddccxcddddccccddddccccddddccccddsdccccddddlcccdldd",
"lcccddddscclddsdccccddddccccddddccccddddlcccldddcclcddlxcclcdddl",
"ccccddddccccddlxlcccldldclscdddxclccddldccccddddccccddddccccdddd",
"ccccddddccxcdddlcccsddddccccddddlcccldldccccddddccccddddlccclddd",
"ddddccccddddlcccdddlccccddddccccddddccccddddccccddddccccdddlclcc",
"sdddcccsddldccccddddlcccdlddccccdddlccccddddccccdsddccccddddcccc",
"ddddccclddsdclccddddccccddddcxccddddccccxdddccllddddcccldlddcccc",
"dsddccxcddxdccccddddccccddddcclcddddcclcddddccccddddccccddddlccc",
"cccclxddccccddddccccddddcxccddddccccddddccccddddccccdddxccccdddd",
"ccccddddccccddddccccddddccccdxddccccddldcccsddddlcccdddlccccdldd",
"ccxcddddcxccddldccccddsdccccddddccccddddccccdddsccccdddsccccddds",
"ccclllxdccccddddccccddddccccddddccccddddxcccddddccccddlxlcccddsd",
"ddsdccccddsdccccddddlcccddddscccddddccccddddccccddddccccddddcccc",
"ddddclccddddccccdddlccccddddccccddddccclddddccccslddclccddddcccc",
"ddddccccddddccccddddccccddddcclcdddlccccddddcclcddddccccddddcccc",
"dldsccccsddsccccddddccccddddccccddddcclcddddccccdxddccccddddcccc",
"ccccldddcccxdlddccccddddxcccddddcclcddddccccddddccxcddddccccdddd",
"xcccddddccccddddccccllddccxcddddccccddddccccddddccccddddccccdddd",
"ccccddddccccdsdllcccddddccccdxldccccddddccccddddccccddddxcccdddd",
"ccccddddlcccddddccccddddccccddddccccddddccclddddccccddddcccclddd",
"ddddccccddddccccdddsccccddddccccddddccccddddccccddddccccddddcccc",
"xdddccccddddccccdlddlcccdddlclccddddccccddddclccddddscccddddcclc",
"ddddccccddsdccccddddccccdddsccxcddldccccddldccccddddccccddddxclc",
"ddddscccddlllcccddddccccddddcccsddddccccdssdcccclsddccscddddcccc",
"ccccddddccccdlddccccdsddccccddddccccsdddxcccddsdlcccddddcxccdddd",
"clccddddccccddddcccclddxccccdddsccclddddcsccddddccccddddllccdddd",
"scccddddccccddddccccddddccccddldccccddddccccddddccccddddcscsddlx",
"ccccddddccccddddccccddddcsccddddcllcddddccccddddccccddddccccdddd",
"ddddccccddddscccddddccccddddccccddldllccddddccccddddcxccddldcccc",
"dlddcclcddddccccddddccccsdldcccxldddccccddddccccddddccccddddcccc",
"dlddccccddddcsccddddccxcddddccccddddccccddddlcccdlddccccldddcccc",
"ldslccccddxdccccddddccccdlddccccddddclccddddccccddxdccccddddcccc"
};
