/* XPM */
static char *level1_grate_floor[] = {
"64 64 4 1",
"d c #4a4a4a",
"l c #8a8a8a",
"m c #6a6a6a",
"o c #3a3a3a",
"ooooldldooooldldooooldldooooldldooooldldooooldldooooldldooooldld",
"oooodmdmoooodmdmoooodmdmoooodmdmoooodmdmoooodmdmoooodmdmoooodmdm",
"ooooldldooooldldooooldldooooldldooooldldooooldldooooldldooooldld",
"oooodmdmoooodmdmoooodmdmoooodmdmoooodmdmoooodmdmoooodmdmoooodmdm",
"ldldldldldldldldldldldldldldldldldldldldldldldldldldldldldldldld",
"dmdmdmdmdmdmdmdmdmdmdmdmdmdmdmdmdmdmdmdmdmdmdmdmdmdmdmdmdmdmdmdm",
"ldldldldldldldldldldldldldldldldldldldldldldldldldldldldldldldld",
"dmdmdmdmdmdmdmdmdmdmdmdmdmdmdmdmdmdmdmdmdmdmdmdmdmdmdmdmdmdmdmdm",
"ooooldldooooldldooooldldooooldldooooldldooooldldooooldldooooldld",
"oooodmdmoooodmdmoooodmdmoooodmdmoooodmdmoooodmdmoooodmdmoooodmdm",
"ooooldldooooldldooooldldooooldldooooldldooooldldooooldldooooldld",
"oooodmdmoooodmdmoooodmdmoooodmdmoooodmdmoooodmdmoooodmdmoooodmdm",
"ldldldldldldldldldldldldldldldldldldldldldldldldldldldldldldldld",
"dmdmdmdmdmdmdmdmdmdmdmdmdmdmdmdmdmdmdmdmdmdmdmdmdmdmdmdmdmdmdmdm",
"ldldldldldldldldldldldldldldldldldldldldldldldldldldldldldldldld",
"dmdmdmdmdmdmdmdmdmdmdmdmdmdmdmdmdmdmdmdmdmdmdmdmdmdmdmdmdmdmdmdm",
"ooooldldooooldldooooldldooooldldooooldldooooldldooooldldooooldld",
"oooodmdmoooodmdmoooodmdmoooodmdmoooodmdmoooodmdmoooodmdmoooodmdm",
"ooooldldooooldldooooldldooooldldooooldldooooldldooooldldooooldld",
"oooodmdmoooodmdmoooodmdmoooodmdmoooodmdmoooodmdmoooodmdmoooodmdm",
"ldldldldldldldldldldldldldldldldldldldldldldldldldldldldldldldld",
"dmdmdmdmdmdmdmdmdmdmdmdmdmdmdmdmdmdmdmdmdmdmdmdmdmdmdmdmdmdmdmdm",
"ldldldldldldldldldldldldldldldldldldldldldldldldldldldldldldldld",
"dmdmdmdmdmdmdmdmdmdmdmdmdmdmdmdmdmdmdmdmdmdmdmdmdmdmdmdmdmdmdmdm",
"ooooldldooooldldooooldldooooldldooooldldooooldldooooldldooooldld",
"oooodmdmoooodmdmoooodmdmoooodmdmoooodmdmoooodmdmoooodmdmoooodmdm",
"ooooldldooooldldooooldldooooldldooooldldooooldldooooldldooooldld",
"oooodmdmoooodmdmoooodmdmoooodmdmoooodmdmoooodmdmoooodmdmoooodmdm",
"ldldldldldldldldldldldldldldldldldldldldldldldldldldldldldldldld",
"dmdmdmdmdmdmdmdmdmdmdmdmdmdmdmdmdmdmdmdmdmdmdmdmdmdmdmdmdmdmdmdm",
"ldldldldldldldldldldldldldldldldldldldldldldldldldldldldldldldld",
"dmdmdmdmdmdmdmdmdmdmdmdmdmdmdmdmdmdmdmdmdmdmdmdmdmdmdmdmdmdmdmdm",
"ooooldldooooldldooooldldooooldldooooldldooooldldooooldldooooldld",
"oooodmdmoooodmdmoooodmdmoooodmdmoooodmdmoooodmdmoooodmdmoooodmdm",
"ooooldldooooldldooooldldooooldldooooldldooooldldooooldldooooldld",
"oooodmdmoooodmdmoooodmdmoooodmdmoooodmdmoooodmdmoooodmdmoooodmdm",
"ldldldldldldldldldldldldldldldldldldldldldldldldldldldldldldldld",
"dmdmdmdmdmdmdmdmdmdmdmdmdmdmdmdmdmdmdmdmdmdmdmdmdmdmdmdmdmdmdmdm",
"ldldldldldldldldldldldldldldldldldldldldldldldldldldldldldldldld",
"dmdmdmdmdmdmdmdmdmdmdmdmdmdmdmdmdmdmdmdmdmdmdmdmdmdmdmdmdmdmdmdm",
"ooooldldooooldldooooldldooooldldooooldldooooldldooooldldooooldld",
"oooodmdmoooodmdmoooodmdmoooodmdmoooodmdmoooodmdmoooodmdmoooodmdm",
"ooooldldooooldldooooldldooooldldooooldldooooldldooooldldooooldld",
"oooodmdmoooodmdmoooodmdmoooodmdmoooodmdmoooodmdmoooodmdmoooodmdm",
"ldldldldldldldldldldldldldldldldldldldldldldldldldldldldldldldld",
"dmdmdmdmdmdmdmdmdmdmdmdmdmdmdmdmdmdmdmdmdmdmdmdmdmdmdmdmdmdmdmdm",
"ldldldldldldldldldldldldldldldldldldldldldldldldldldldldldldldld",
"dmdmdmdmdmdmdmdmdmdmdmdmdmdmdmdmdmdmdmdmdmdmdmdmdmdmdmdmdmdmdmdm",
"ooooldldooooldldooooldldooooldldooooldldooooldldooooldldooooldld",
"oooodmdmoooodmdmoooodmdmoooodmdmoooodmdmoooodmdmoooodmdmoooodmdm",
"ooooldldooooldldooooldldooooldldooooldldooooldldooooldldooooldld",
"oooodmdmoooodmdmoooodmdmoooodmdmoooodmdmoooodmdmoooodmdmoooodmdm",
"ldldldldldldldldldldldldldldldldldldldldldldldldldldldldldldldld",
"dmdmdmdmdmdmdmdmdmdmdmdmdmdmdmdmdmdmdmdmdmdmdmdmdmdmdmdmdmdmdmdm",
"ldldldldldldldldldldldldldldldldldldldldldldldldldldldldldldldld",
"dmdmdmdmdmdmdmdmdmdmdmdmdmdmdmdmdmdmdmdmdmdmdmdmdmdmdmdmdmdmdmdm",
"ooooldldooooldldooooldldooooldldooooldldooooldldooooldldooooldld",
"oooodmdmoooodmdmoooodmdmoooodmdmoooodmdmoooodmdmoooodmdmoooodmdm",
"ooooldldooooldldooooldldooooldldooooldldooooldldooooldldooooldld",
"oooodmdmoooodmdmoooodmdmoooodmdmoooodmdmoooodmdmoooodmdmoooodmdm",
"ldldldldldldldldldldldldldldldldldldldldldldldldldldldldldldldld",
"dmdmdmdmdmdmdmdmdmdmdmdmdmdmdmdmdmdmdmdmdmdmdmdmdmdmdmdmdmdmdmdm",
"ldldldldldldldldldldldldldldldldldldldldldldldldldldldldldldldld",
"dmdmdmdmdmdmdmdmdmdmdmdmdmdmdmdmdmdmdmdmdmdmdmdmdmdmdmdmdmdmdmdm"
};
