/* XPM */
static char *level1_metal_wall[] = {
"64 64 5 1",
"d c #3a3a3a",
"h c #2a2a2a",
"l c #6a6a6a",
"m c #4a4a4a",
"r c #8b5a3c",
"mlmmmmmldlddldddmmmlmmmmddllddddmmmmmmmmdlddldldmmmmmmmmdddddddd",
"mmmlmmmmddddddddmmmmmmmmllldddldmmmmlmmmddldddddmmmmmmmmddddldld",
"mmmlmmlmlddlddddmmmmmmmmddldddddlmmmmlmmdlddddddlmmmmmmldddddddd",
"mmmmmlmmdddddddlmmmmmmmmddddddddlmmmmmlmdddlddddmmmmmmmmddddlddd",
"lmmmmmmmdddddlddmmlllmmmdddddddlmmlmmmmmdlldddddllmmmmmmdldddddd",
"mmmmlmmmdddddlddmmmmmmlmddddddddmlmmmmlmddddddddlmmmmmmldddddddd",
"mmlmmmmmddldddddmmmmmmlmdddddddlmmmlmmmmdddlddldmmmlmmmmdddddddd",
"mmmmmmmmddddldddmlmmmlmmddddddddmlmmmmmmdddddlddmmmlmlmmldldlddd",
"dddddlldmmmmmmmmldldddddmmmlmmlldddddlddlmmmlmmmddddddldmmmmmmmm",
"dddddddlmmmmmlmmddddddldlmmmmmmmldddddddmmmmmlmlddddddddmlmmmlmm",
"dddlddddmmmlmmmmldlldddlmmmmmmmmddddddddmmmllmmmddddddddmmmmmmml",
"dddddlddmmmllmmmldddddddlmmmmmmmdlddddddmmmmmmmmddddddddmmmmmmmm",
"lddddddlmmmlmmmmddddddddmmmmmmmmdddddlddmmmmmmmmdlddddddmmlmmmmm",
"ddddddddmmmmmmmmdddlldddmmlmmmmmldddldddmlmmmmlmddldddddmmmmmmmm",
"ddddddddmmmmlmmmddddddddmmmmmmmmdldddlddmmmmmmmmdldlddddmmmmlmmm",
"ddddldldmmmlmmmmldddldldmmmmmmmldddlddddlmmmmmmldddddlddlmlmmmmm",
"lmlmllmmdllddddlmmmmmmlmdldddddlmmmmmllmldddddddmlmmmmmmdddddldd",
"mmmlmllmdddddlddmmmmmmmmddldddddmmmmmlmmdddddlddmlmlmmmmddddlldd",
"mmmmmmmldddddlddlmmlmmlmddddddldllmmmmmmlldddddlmmmmmmmmddlddddd",
"mmlmmmmmddddddddmmmmlmmmldddldldmmmmmmmmdddddlldmmmmmmmmdddddddd",
"llmmmmmmddldddddmmmmmmmmddddddddmmmllmlmddlddlddmmmmmmmmdddddddd",
"mmmmmmmmdddlddddlmmmmmmldddddlldmmmlmmmmldddlddllmmmmmlmdldddldd",
"lmmlmmmmdldlddddmmmmmlmmdddddlddmmmmmmlmddldldddmmmmmmmmlddddddd",
"mmmmmlmmddldddddmlmmmmmmldddddldmllmmmmmddddddddmlmmmmmmdddddldd",
"ddlddddlmmmmmmmmldldldddmmlmmmmmdlddddddmmmmmmllddddddddmmmlmmmm",
"ddddddddllmmmmmmddddddddllmmmmmmdddlddddmmlmmmmmddddddddmlmmmmml",
"ddddddddmmmmmmmldddddlddmmmmmmmlldddddddmmmmmmmmddddddddmlmmmmmm",
"dddddldlmllmmmmmdddlldddmmmmmmmmddddddddmmmmmmmmdlddddddmmmmmmmm",
"dddlddddmmlmmlmlddddddddmmmlmmmmddddddddmmmmlmlmddddddddlmmmmmmm",
"ddddddldmlmmmmmmddlddlldmmmmmlmmddldddddmmmmmmmlddldldddlmmlmmlm",
"ddddldddmmmmlmlmdldlddddmmmmmmmmddddddddmllmmmmmdddddlddmmlmllmm",
"ldddddldmmmmmmmmldddldddmmmmmmmmdlddddddmmmmmlmmdddlddddmmmmmmmm",
"mmlmmlmmddddddddmmmmlmmmdddddlddmmmmmmmmddddddddmmmmmmlldddddddd",
"lmmmmmmmldldddldmmmlllmmddddddddmmmmmlmmllddddddlmlmmmmlldddlddd",
"mmmmlmmmddddldddmlmmmmmmdlddddddmmlmmmlmddddllddmlmmmmlmldddddld",
"mmmmmlmmldddldddmmlmmmmmdddddlddmmmmmmmmddddldddmmmmmmmmdddddddd",
"mlmmmmmmddddddldmmmlmmmmddldddddmmmmmmllddldldddmmmmmmmldddddddd",
"mmmmmmmlddddddddllmmmmmmddddddddmmmmlllmddddldddmmmmmlmmldlldddd",
"mmmmllmmdddddddllmmmmlmmdlddddddmmmmmmmmdddlddldmmmmmmmmdldddddl",
"mmmmmmmmdddddlddmmmmlmmmdddlddddmmmmmmmmllddlddlmmmlmmmmdddddddd",
"dddldlddlmmmmllmdlddlddlmlmlmmmmddddllddmmmlmlmmddddddddmmlmmmlm",
"dddddlddmmmmmllmllddddddlmmmmmmmdddddlddmllmmmmmdlddddddmmlmmmml",
"ddlddlddmmmmlmmmdlddddddmmmmmmmmdlddddddmlmmmmmlddddddddmmmmlmmm",
"dddldddlmmmlmmlmdddddlllmlmmmmmmdddddlddmmmmmmmmddlddddlmmlmmmmm",
"dlddddddllmmlmmmddddllddlmmmlmmmddldddddmlmmmmmldlddddddmmmmmmmm",
"dddddlddmmmlmmmmldddddddmmmmmlmmddddddddlmmmlmmlddddldddmmmmmmlm",
"ldddddddmmmmmmmmlddddddlmmmmmmlmddddldddmmmlmllmddddddldmmmmlmmm",
"dldddddlmmmlmmmmldddddddmlmmmmmmdddlddldmmmmlmmmddddddldmlmmmmmm",
"mmmmmmmldddddddlmmmmmlmmdddddddlmmmmmmmmdddlddddmlmmmmmmdldlddld",
"mmmmmlmmdddldlddmmmmmmmmdddddddlmmlmmmmmddddddllmmmmmmmmdddddddd",
"mmmmlmmldddlddddmmmmmmmmdlddddddmllmmmmmddldddddmmmmmmmmlddddddd",
"mmmmmmmllddddddlmmmmmmmmddddldddmmlmlmmmddddddddmlmmmmmmldddddld",
"mlmmmmmmddldddddmmmmmmmmdddddddlmmmmmlmmdldddlddmmmmmmmmdddldldl",
"llmmmmmmdlddddldmmmllmmldddddldlmmmmlmlmddddddldmmmmmmmmdldldddd",
"mmmmmlmmdldldlddmmmmmmmmddldddddmmmlmmmmdldddlddmmmmmmmlddlddlld",
"mmmmmmmldddddddlmmmmmmmmldlddlddmmmmmlmmddddddldmlmmmmmmddlddddd",
"dddddddlmmmmmmmmddddddddmmmmlmmmddddddddllmmmmmmddddldldmmmmmmmm",
"dddddddlmmmmmmmmddddddddmmmmmmlmddddddldmmmmmmmmdldddlddmmmmmmmm",
"ldddddddmmmmmmmmdddlddddmmmllmmmdlddddddmmmmllmmddddddldmmmmmmlm",
"lddlddddmmlmmmmlddddddddllmmmmmmddddddddmmmmmmmmdlldddldlmmmmmmm",
"ddddldddmmlmmmmmdddddlddmlllmlmmddddddddmmmmmmmmddddddddmmmmmmmm",
"ldldddddlmmmmmmmddddddddmmmmmmmmldldddddlmmmmmmmdlldddldlmmmmmlm",
"ddldddddmmmmmmmmddddldddmllmmlmmldldddddmmlmmmmmddddllddmmmmmmmm",
"llddddddmmmmmmmmddddddddmmmmmmmmdddddddlllmmlmllddddddddmmmmmmlm"
};
