/* XPM */
static char *shotgunguy[] = {
/* columns rows colors chars-per-pixel */
"64 64 57 1 ",
"  c #FF00FF",
"  c #AD8567",
". c #A88062",
"X c #AF8769",
"o c #A98163",
"* c #B0886A",
"O c #AE8668",
"o c #AC8466",
"O c #A47C5E",
"+ c #AB8365",
"@ c #A77F61",
"# c #A67E60",
"$ c #A57D5F",
"% c #AA8264",
"& c #9B412D",
"= c #963C28",
"- c #923824",
"; c #903622",
": c #9E4430",
"> c #A04632",
"< c #993F2B",
", c #8F3521",
"1 c #913723",
"2 c #973D29",
"3 c #8D331F",
"4 c #953B27",
"5 c #9A402C",
"6 c #9F4531",
"7 c #9C422E",
"8 c #943A26",
"9 c #983E2A",
"0 c #9D432F",
"a c #8E3420",
"b c #8C321E",
"c c #A27A5C",
"d c #B28A6C",
"e c #933925",
"f c #1E1E1E",
"g c #A37B5D",
"h c #B1896B",
"i c #35302B",
"j c #312C27",
"k c #2D2823",
"l c #302B26",
"m c #332E29",
"n c #322D28",
"o c #2C2722",
"p c #37322D",
"q c #2B2621",
"r c #2A2520",
"s c #36312C",
"t c #2F2A25",
"u c #342F2A",
"v c #2E2924",
"w c #39342F",
"x c #3A3530",
"y c #38332E",
/* pixels */
"                                                                ",
"                                                                ",
"                                                                ",
"                                                                ",
"                             .Xo*XXO                            ",
"                            oO+*@OO#$                           ",
"                           o+@%o$ @OX@                          ",
"                          %.#*%#**$#  +                         ",
"                          ##OO@*@##.o@o                         ",
"                          OO@#X@%.Oo%##                         ",
"                          .$o.  O OXo$.                         ",
"                         o.+Xo#++X#O.OXo                        ",
"                          %Oo*%o% O+OX#                         ",
"                           @$*@+oooo.*+                         ",
"                          $ X**o.O%$@oo                         ",
"                           o#o.Xo$.Oo.#                         ",
"                           *$O#XX.+#XO                          ",
"                            $ o%O@X o                           ",
"                             .+O%#OO                            ",
"                     &=-;:;><,1<2;3<4;56175                     ",
"                     &=&84&9;,901>&=1a&8707                     ",
"             ,8a4;5<22a2:34208&84=>1:b&08=8 c@@$%d@             ",
"             e7<2;7e4547>228>2<2152=7;71-2&#*XX$oo*    fffff    ",
"             e8,&=a7,4a<16:7<460>8b-1:56>1eo*X@*g@h    fffff    ",
"             7&e,,:<11>3&e13;,=1&-03<529ffffffffffffffffffff    ",
"             ;40;0,4,-e2b298<,023064,407ffffffffffffffffffff    ",
"             05,,=&722;<<:>025;169:&-;6affffffffffffffffffff    ",
"             ,,8e:584,=:60;=>:9<<e&4&991ffffffffffffffffffff    ",
"             ;91;e;8a4&8<b=4&4;&b,65e43;ffffffffffffffffffff    ",
"             7<0&5:-a008e&3e&8;44&6&7>6,ffffffffffffffffffff    ",
"             2741-20;40=647b522:;3b805,0-b<$d@Ococ+    fffff    ",
"             =59--;04<6:>>&9&9-45a4b<:4>&4;dOdhO*g#    fffff    ",
"             ;&4=,04,1&0&=0;<:03ae8aab=<a9&X cd.++O             ",
"             82<1;&953,,e6>,;45;161<1a6-30,cO X+c%o             ",
"             a2-a7-a,9a83::,96;b<a=6&&2>23;OgO+ .hd             ",
"             &=15-9;24;:>74006e8a0e847;e259O$ooXOcO             ",
"             e-=092,;1;b>=a:3a,765e95&=,7b0O@d.oOo$             ",
"             aa1,-<&=93;<e,a&-;692e4=6299;2                     ",
"             a4:&-<89>4><273::-19a,331--3&&                     ",
"                     2b<&46<=55,-;>1a29&;08                     ",
"                     ,814e3&322=3b5&;,=45e1                     ",
"                       ijklmmno pqlrppps                        ",
"                       toptjopp rtuvmlpo                        ",
"                       jpwxjmpn ilsplnvw                        ",
"                       outprvkm imrktyoo                        ",
"                       tplukuoq sqpvlrwu                        ",
"                       wvxoulys yvyjoirr                        ",
"                       jwkrltko tponviul                        ",
"                       uvikyutk vmxomkks                        ",
"                       ikolluit imiwyjvn                        ",
"                       yojsysrk rrsvjwqr                        ",
"                       ivrwsuow rlpjxjmq                        ",
"                       mrkwilus xjqsirmy                        ",
"                       vmwokmpu ykkixnss                        ",
"                       oxpqjpjn mtoyqlxs                        ",
"                       ovnkwpts kxmipvyi                        ",
"                       joyivorv owrlyqqo                        ",
"                       irrnysxo kuviunnw                        ",
"                       qllyrwxo vknnrnst                        ",
"                       nwxrqtsx jnytvqik                        ",
"                                                                ",
"                                                                ",
"                                                                ",
"                                                                "
};
