/* XPM */
static char *sky_mars[] = {
/* columns rows colors chars-per-pixel */
"64 64 10 1 ",
"  c #301010",
"  c #501010",
". c #503010",
"X c #703010",
"o c #703030",
"* c #903030",
"O c #905030",
"o c #B05030",
"O c #B07030",
"+ c #D07030",
/* pixels */
"                                                                ",
"                                                                ",
"                                                                ",
"                                                                ",
"                                                                ",
"                           ..  .  .       .         .     .. .. ",
"..  . .  .     ..   .  ....  ... ..    .. . .... .  ..   .  ....",
".  . . .   ..... .. .. .. .... ...  ... . ..... ... ....    .  .",
"....... ............ ............. .... ... .....  ........... .",
"................................................................",
"........X.......XX.........X............X......X................",
"X....X....X...X...XX........XX..X.X.........X...XXX......X.XX.X.",
"..X.X.X..X..X.X.X.X.XXXXX..XXX.X..XXXX.XX...XXXXXX.XXX.X..XXX.X.",
"XXXX....XXXXXXXXXXXX...XX...X..X.XX.X..X.XX.XXXXXXXXXXXX.XXX.XXX",
".XXX.XX.XX.XXXXXXXXXXXXXXXXXX.X.XXXX....XXXXXXXXXXXXXXX.XXXXXXXX",
"XXXXXXXXXXXXXXXXXXXXXXXXXXXXXXXXXXXXXXXXXXXXXXXXXXXXXXXXXXXXXXXX",
"XXXXXXXXXXXXXXXXXXXXXXXXXXXXXXXXXXXXXXXXXXXXXXXXXXXXXXXXXXXXXXXX",
"XXXXXXXXXXXXXXXXXXXXXXXXXXXXXXXXXXXXXXXXXXXXXXXXXXXXXXXXXXXXXXXX",
"XXXXoXXXXXXXXoXXXXXXXXXXXXXXXXXXXXXXXXXXXXXXXXXXXXXXXXXXXooXXXXX",
"XXXXXXXoXXXooXXXXoXoXXXXoXoXXXoXXXXXXXXXXooXoXooXXoXXXXXoXXXXoXo",
"XXXoXXXooXoXXoXXoXXXXoXoXoXXoXoXXooXXoXXoXoXXXXoXoXXooooXooXoXoX",
"ooXXooXoooooo*XXXoXXXXoXX*oXXXXXXoooXXXXoXoXooXXoXoOoXOoX*XoXo*o",
"XXooXXXOooOOOXoOOXoXXoOOooXoOoOoOOoOXXoXOXOoOooXXXOOooOoOOO*oo*X",
"OXOXooOOXOoOoOOOOOOOXOXOOOoOoOOOOXoXOXoOOOXOoOoOOOXoOOooooOOOOOO",
"OOooOOOOooOOOooOOOOoOOoOOOoOOOOooOOooOOOoOOOOOooOoOOOoOOOOOooOoO",
"OooOOOOoOOOOOOOOOOOOOOOOOOOoOoOOOOOOOOOOOOOOOOOOOOOooOOOOOOOOOOO",
"OOOOOOOOOOOOOOOOOOOOOOOOOOOOOOOOOOOOOOOOOOOOOOOOOOOOOOOOOOOOOOOO",
"OOOOOOOOOOOOOOOOOOOOOOOOOOOOOOOOOOOOOOOOOOOOOOOOOOOOOOOOOOOOOOOO",
"OOOOOOOOOOOOOOOOOOOOOOOOOOOOOOOOOOOOOOOOOOOOOOOOOOOOOOOOOOOOOOOO",
"OOOOOOOOOOOOOOOOOOOOOOOOOOOOOOOOOOOOOOOOOOOOOOOOOOOOOOOOOOOOOOOO",
"OOOOOOOOOOOOOOOOOOOOOOOOOOOOOOOOOOOOOOOOOOOOOOOOOOOOOOOOOOOOOOOO",
"OOOOOOOOOOOOOOOOOOOOOOOOOOOoOOOOOOOOOOOooOOOoOOOOOOOOOOOOOOOOOOO",
"OoOOOOooOOOoOoOOoOOOOOOOOoOOooooOOooOOOOOOOoOoOoooOOOOOOOOoOOooo",
"OOoooOoOOOOOOOooooOoOoOooooOOooooOoOoOOOOoOOOoOoOooOoOoooOOooOOO",
"oOoOoOOoooooooooOOoOoOoOooOooooOoooooOOooooOooOoOoOoOoOOOoOooooo",
"ooooooOooooooooOooooooOOooooooooOooOoooooOoOoooOOOooOooooooooooo",
"oooooooOooooooooOooooooooooooooooooooooOooooOoOooooooooooooooooo",
"oooooooooooooooooooooooooooooooooooooooooooooooooooooooooooooooo",
"oooooooOoooOoooooOoOOooooooooOoooooooOooooooooooooOooooooooooOoo",
"oooOoOoooooOOoOoOoooooOoOOoooOooOoOooooOooOOOOOoOoOoooOOoooOOoOo",
"OoOooOOOoOooOOoOoOOoOoOoOoooOoOoOooooOOOoOOOoOOoOoooOOOOoOOooooo",
"OOOOOoOOOOoOOOoOOOOOOoooOoOOOoOOOoOoOOOOOOOOOOoooOoOoOOOoOoOoOOo",
"OoO+OoOOOoOOO+OOOoOOOOO++OOOO+OOO+o+OOOOOOOO++OOOOOOOOOOOO+oOO+O",
"OOO+OO+OOOOO++OO+O+OOOO++++O+O+O+O+O+OOOOO++O+OO+O+OOOO+OOO+O+O+",
"+OoOO+OOO+oOO+OOo+++oO+OOOOOOO+O++O++oo+OO+oO+OOOO+OO+O++OO+OO++",
"+Oo+++++++OO+oooooo+ooo++++++++++o+OOooooooOooO+oO+OOOO+oOOoO+++",
"++oo++o+Oooo+oooooooooo++++o+++++o++oooooooOooooo++o+oo+oO+ooOOO",
"+oooooo+oooo+oooooooooooo+ooooooooo+oooooooooooooooo+oooooooo+oo",
"...........X.X...................X...X..X.....X......X.....XX..X",
".............X.....X...X.X.........XX..X.X........XX............",
"X..........................X....X...X........X.X...X.......X.X..",
".X.....X.X.........XX.......X..........X..X....X.........X......",
"...X.X.....XX............X.....X.......X...........X.....X......",
"...X...X.........X.....................X.........X........X.X...",
"..X....X..................X.......XX..X..X......................",
"...X..X............X..X........X......X.X...X.X.........X..X....",
".....X.....X....XXX......X......X.X...X..X...X...X..X....X..XX..",
"......X.X.......X..X..........X............X...X........X.......",
"X.....X......................X.......X..X......X...X............",
"......X........X.X..........X....XX..X........X........X.X...X.X",
".....X..X..X........XX......X................X.......X..........",
"X......XXX.X.....X......X..X...XX....X........X..X...XX..X..X...",
"....XX....X...X.X.X...............X.................XX........X.",
".......X........X.......X.X......X....X....XX..X..XX........X..."
};
