/* XPM */
static char *tech_panel[] = {
/* columns rows colors chars-per-pixel */
"64 64 14 1 ",
"  c #707090",
"  c #507070",
". c #505050",
"X c #909090",
"o c #707070",
"* c #303050",
"O c #303030",
"o c #10D010",
"O c #103030",
"+ c #101010",
"@ c #505070",
"# c #F0D010",
"$ c #101030",
"% c #D01010",
/* pixels */
"               .Xoooooooooooooo.               .Xoooooooooooooo.",
".**************Oo..............O.**************Oo..............O",
".**************Oo..............O.**************Oo..............O",
".**************Oo..............O.**************Oo..............O",
".**************Oo..............O.**************Oo..............O",
".**************Oo..............O.**************Oo..............O",
".**************Oo..............O.**************Oo..............O",
".**************Oo..............O.**************Oo..............O",
".*****oo*******Oo..............O.**************Oo..............O",
".*****oo*******Oo..............O.**************Oo....oo........O",
".**************Oo..............O.**************Oo....oo........O",
".**************Oo..............O.**************Oo..............O",
".**************Oo..............O.**************Oo..............O",
".**************Oo..............O.**************Oo..............O",
".**************Oo..............O.**************Oo..............O",
"OOOOOOOOOOOOOOO+.OOOOOOOOOOOOOO+OOOOOOOOOOOOOOO+.OOOOOOOOOOOOOO+",
"Xoooooooooooooo.o@@@@@@@@@@@@@@.               .o@@@@@@@@@@@@@@.",
"o..............O.OOOOOOOOOOOOOOO.**************O.OOOOOOOOOOOOOOO",
"o..............O.OOOOOOOOOOOOOOO.**************O.OOOOOOOOOOOOOOO",
"o..............O.OOOOOOOOOOOOOOO.**************O.OOOOOOOOOOOOOOO",
"o..............O.OOOOOOOOOOOOOOO.**************O.OOOOOOOOOOOOOOO",
"o..............O.OOOOOOOOOOOOOOO.**************O.OOOOOOOOOOOOOOO",
"o..............O.OOOOOOOOOOOOOOO.**************O.OOOOOOOOOOOOOOO",
"o......##......O.OOOOOOOOOOOOOOO.**************O.OOOOOOOOOOOOOOO",
"o......##......O.OOOOOOOOOOOOOOO.**************O.OOOOOOOOOOOOOOO",
"o..............O.OOOOOOOOOOOOOOO.**************O.OOOOOOOOOOOOOOO",
"o..............O.OOOOOOOOOOOOOOO.**************O.OOOOOOOOooOOOOO",
"o..............O.OOOOOOOOOOOOOOO.**************O.OOOOOOOOooOOOOO",
"o..............O.OOOOOOOOOOOOOOO.**************O.OOOOOOOOOOOOOOO",
"o..............O.OOOOOOOOOOOOOOO.**************O.OOOOOOOOOOOOOOO",
"o..............O.OOOOOOOOOOOOOOO.**************O.OOOOOOOOOOOOOOO",
".OOOOOOOOOOOOOO+O$$$$$$$$$$$$$$+OOOOOOOOOOOOOOO+O$$$$$$$$$$$$$$+",
"               .               .Xoooooooooooooo.Xoooooooooooooo.",
".**************O.**************Oo..............Oo..............O",
".**************O.**************Oo..............Oo..............O",
".**************O.**************Oo..............Oo..............O",
".**************O.**************Oo..............Oo..............O",
".**************O.**************Oo..............Oo......##......O",
".***##*********O.**************Oo..............Oo......##......O",
".***##*********O.**************Oo..............Oo..............O",
".**************O.**************Oo..............Oo..............O",
".**************O.**************Oo......##......Oo..............O",
".**************O.**************Oo......##......Oo..............O",
".**************O.**************Oo..............Oo..............O",
".**************O.**************Oo..............Oo..............O",
".**************O.**************Oo..............Oo..............O",
".**************O.**************Oo..............Oo..............O",
"OOOOOOOOOOOOOOO+OOOOOOOOOOOOOOO+.OOOOOOOOOOOOOO+.OOOOOOOOOOOOOO+",
"Xoooooooooooooo.Xoooooooooooooo.Xoooooooooooooo.Xoooooooooooooo.",
"o..............Oo..............Oo..............Oo..............O",
"o..............Oo..............Oo..............Oo..............O",
"o..............Oo..............Oo..............Oo..............O",
"o..............Oo..............Oo..............Oo..............O",
"o......oo......Oo..............Oo..............Oo..............O",
"o......oo......Oo..............Oo..............Oo.......%%.....O",
"o..............Oo..............Oo..............Oo.......%%.....O",
"o..............Oo..............Oo..............Oo..............O",
"o..............Oo..............Oo..............Oo..............O",
"o..............Oo..............Oo..............Oo..............O",
"o..............Oo..............Oo..............Oo..............O",
"o..............Oo..............Oo..............Oo..............O",
"o..............Oo..............Oo..............Oo..............O",
"o..............Oo..............Oo..............Oo..............O",
".OOOOOOOOOOOOOO+.OOOOOOOOOOOOOO+.OOOOOOOOOOOOOO+.OOOOOOOOOOOOOO+"
};
