/* XPM */
static char *uac_panel_tech[] = {
"64 64 5 1",
"b c #0099ff",
"d c #2a2a2a",
"g c #00ff00",
"m c #4a4a4a",
"p c #1a1a1a",
"mmmmmmmmmmmmmmmmmmmmmmmmmmmmmmmmmmmmmmmmmmmmmmmmmmmmmmmmmmmmmmmm",
"mgggdgggggggdggmmbbbdbbbbbbbdbbmmgggdgggggggdggmmbbbdbbbbbbbdbbm",
"mgggdgggggggdggmmbbbdbbbbbbbdbbmmgggdgggggggdggmmbbbdbbbbbbbdbbm",
"mgggdgggggggdggmmbbbdbbbbbbbdbbmmgggdgggggggdggmmbbbdbbbbbbbdbbm",
"mddddddddddddddmmddddddddddddddmmddddddddddddddmmddddddddddddddm",
"mgggdgggggggdggmmbbbdbbbbbbbdbbmmgggdgggggggdggmmbbbdbbbbbbbdbbm",
"mgggdgggggggdggmmbbbdbbbbbbbdbbmmgggdgggggggdggmmbbbdbbbbbbbdbbm",
"mgggdgggggggdggmmbbbdbbbbbbbdbbmmgggdgggggggdggmmbbbdbbbbbbbdbbm",
"mgggdgggggggdggmmbbbdbbbbbbbdbbmmgggdgggggggdggmmbbbdbbbbbbbdbbm",
"mgggdgggggggdggmmbbbdbbbbbbbdbbmmgggdgggggggdggmmbbbdbbbbbbbdbbm",
"mgggdgggggggdggmmbbbdbbbbbbbdbbmmgggdgggggggdggmmbbbdbbbbbbbdbbm",
"mgggdgggggggdggmmbbbdbbbbbbbdbbmmgggdgggggggdggmmbbbdbbbbbbbdbbm",
"mddddddddddddddmmddddddddddddddmmddddddddddddddmmddddddddddddddm",
"mgggdgggggggdggmmbbbdbbbbbbbdbbmmgggdgggggggdggmmbbbdbbbbbbbdbbm",
"mgggdgggggggdggmmbbbdbbbbbbbdbbmmgggdgggggggdggmmbbbdbbbbbbbdbbm",
"mmmmmmmmmmmmmmmmmmmmmmmmmmmmmmmmmmmmmmmmmmmmmmmmmmmmmmmmmmmmmmmm",
"mmmmmmmmmmmmmmmmmmmmmmmmmmmmmmmmmmmmmmmmmmmmmmmmmmmmmmmmmmmmmmmm",
"mbbbdbbbbbbbdbbmmgggdgggggggdggmmbbbdbbbbbbbdbbmmgggdgggggggdggm",
"mbbbdbbbbbbbdbbmmgggdgggggggdggmmbbbdbbbbbbbdbbmmgggdgggggggdggm",
"mbbbdbbbbbbbdbbmmgggdgggggggdggmmbbbdbbbbbbbdbbmmgggdgggggggdggm",
"mddddddddddddddmmddddddddddddddmmddddddddddddddmmddddddddddddddm",
"mbbbdbbbbbbbdbbmmgggdgggggggdggmmbbbdbbbbbbbdbbmmgggdgggggggdggm",
"mbbbdbbbbbbbdbbmmgggdgggggggdggmmbbbdbbbbbbbdbbmmgggdgggggggdggm",
"mbbbdbbbbbbbdbbmmgggdgggggggdggmmbbbdbbbbbbbdbbmmgggdgggggggdggm",
"mbbbdbbbbbbbdbbmmgggdgggggggdggmmbbbdbbbbbbbdbbmmgggdgggggggdggm",
"mbbbdbbbbbbbdbbmmgggdgggggggdggmmbbbdbbbbbbbdbbmmgggdgggggggdggm",
"mbbbdbbbbbbbdbbmmgggdgggggggdggmmbbbdbbbbbbbdbbmmgggdgggggggdggm",
"mbbbdbbbbbbbdbbmmgggdgggggggdggmmbbbdbbbbbbbdbbmmgggdgggggggdggm",
"mddddddddddddddmmddddddddddddddmmddddddddddddddmmddddddddddddddm",
"mbbbdbbbbbbbdbbmmgggdgggggggdggmmbbbdbbbbbbbdbbmmgggdgggggggdggm",
"mbbbdbbbbbbbdbbmmgggdgggggggdggmmbbbdbbbbbbbdbbmmgggdgggggggdggm",
"mmmmmmmmmmmmmmmmmmmmmmmmmmmmmmmmmmmmmmmmmmmmmmmmmmmmmmmmmmmmmmmm",
"mmmmmmmmmmmmmmmmmmmmmmmmmmmmmmmmmmmmmmmmmmmmmmmmmmmmmmmmmmmmmmmm",
"mgggdgggggggdggmmbbbdbbbbbbbdbbmmgggdgggggggdggmmbbbdbbbbbbbdbbm",
"mgggdgggggggdggmmbbbdbbbbbbbdbbmmgggdgggggggdggmmbbbdbbbbbbbdbbm",
"mgggdgggggggdggmmbbbdbbbbbbbdbbmmgggdgggggggdggmmbbbdbbbbbbbdbbm",
"mddddddddddddddmmddddddddddddddmmddddddddddddddmmddddddddddddddm",
"mgggdgggggggdggmmbbbdbbbbbbbdbbmmgggdgggggggdggmmbbbdbbbbbbbdbbm",
"mgggdgggggggdggmmbbbdbbbbbbbdbbmmgggdgggggggdggmmbbbdbbbbbbbdbbm",
"mgggdgggggggdggmmbbbdbbbbbbbdbbmmgggdgggggggdggmmbbbdbbbbbbbdbbm",
"mgggdgggggggdggmmbbbdbbbbbbbdbbmmgggdgggggggdggmmbbbdbbbbbbbdbbm",
"mgggdgggggggdggmmbbbdbbbbbbbdbbmmgggdgggggggdggmmbbbdbbbbbbbdbbm",
"mgggdgggggggdggmmbbbdbbbbbbbdbbmmgggdgggggggdggmmbbbdbbbbbbbdbbm",
"mgggdgggggggdggmmbbbdbbbbbbbdbbmmgggdgggggggdggmmbbbdbbbbbbbdbbm",
"mddddddddddddddmmddddddddddddddmmddddddddddddddmmddddddddddddddm",
"mgggdgggggggdggmmbbbdbbbbbbbdbbmmgggdgggggggdggmmbbbdbbbbbbbdbbm",
"mgggdgggggggdggmmbbbdbbbbbbbdbbmmgggdgggggggdggmmbbbdbbbbbbbdbbm",
"mmmmmmmmmmmmmmmmmmmmmmmmmmmmmmmmmmmmmmmmmmmmmmmmmmmmmmmmmmmmmmmm",
"mmmmmmmmmmmmmmmmmmmmmmmmmmmmmmmmmmmmmmmmmmmmmmmmmmmmmmmmmmmmmmmm",
"mbbbdbbbbbbbdbbmmgggdgggggggdggmmbbbdbbbbbbbdbbmmgggdgggggggdggm",
"mbbbdbbbbbbbdbbmmgggdgggggggdggmmbbbdbbbbbbbdbbmmgggdgggggggdggm",
"mbbbdbbbbbbbdbbmmgggdgggggggdggmmbbbdbbbbbbbdbbmmgggdgggggggdggm",
"mddddddddddddddmmddddddddddddddmmddddddddddddddmmddddddddddddddm",
"mbbbdbbbbbbbdbbmmgggdgggggggdggmmbbbdbbbbbbbdbbmmgggdgggggggdggm",
"mbbbdbbbbbbbdbbmmgggdgggggggdggmmbbbdbbbbbbbdbbmmgggdgggggggdggm",
"mbbbdbbbbbbbdbbmmgggdgggggggdggmmbbbdbbbbbbbdbbmmgggdgggggggdggm",
"mbbbdbbbbbbbdbbmmgggdgggggggdggmmbbbdbbbbbbbdbbmmgggdgggggggdggm",
"mbbbdbbbbbbbdbbmmgggdgggggggdggmmbbbdbbbbbbbdbbmmgggdgggggggdggm",
"mbbbdbbbbbbbdbbmmgggdgggggggdggmmbbbdbbbbbbbdbbmmgggdgggggggdggm",
"mbbbdbbbbbbbdbbmmgggdgggggggdggmmbbbdbbbbbbbdbbmmgggdgggggggdggm",
"mddddddddddddddmmddddddddddddddmmddddddddddddddmmddddddddddddddm",
"mbbbdbbbbbbbdbbmmgggdgggggggdggmmbbbdbbbbbbbdbbmmgggdgggggggdggm",
"mbbbdbbbbbbbdbbmmgggdgggggggdggmmbbbdbbbbbbbdbbmmgggdgggggggdggm",
"mmmmmmmmmmmmmmmmmmmmmmmmmmmmmmmmmmmmmmmmmmmmmmmmmmmmmmmmmmmmmmmm"
};
