/* XPM */
static char *uac_red_wall[] = {
"64 64 5 1",
"b c #2a2a2a",
"d c #8b0f1d",
"l c #d41f32",
"r c #b41426",
"y c #ffaa00",
"drrrrlllrrrrrrrrdrrlllrlrrlrrrrrdlrrrlrrrrrrrrrrdrrrrlrrlrrrrrrl",
"drrlrlrlrrrrrrrldrrrrrrrrlrrrrrrdrrrlrrrlrrrlrrrdrrrrlrrlrrrrrrr",
"drlrrrrrrrrrrrrldrrlrllrrrrlrrrrdrrrrlrlllrrrrrrdrrrlrrrrrrrrrrr",
"drrrrrrrrrrlrrlrdrlrrrrrrrrrrlrrdrrrrrrrrlrrrrrrdllrrrrrrrrrlllr",
"dlrrrrrrrrrrrrrldrrrrrrrlrrlrlrrdrrrrrrlrrrrrlrrdrrrrrrrrrrrrrrr",
"dlrrrrrrrrrrlrrrdrrrlllrrlrrrrrrdrrrrrrlrrrrrrrrdlrrrrlrrrlrrrrr",
"bbbybbbbbbbbbbybbbybbbbyybyybybybbybbbyybbbbbbbbbyybbbbbbbbbbbbb",
"byybbbbbbbbbbbbbbbbbbybbyybbybbbbbybbyybbbbbyybbbybbybybbbbbbbbb",
"bbbbbybyybbbbbbbbbbbbbbybbbbbbbbbbbbbybyybbbbbbbbbbbbbbbyybbbbbb",
"bybybbbbbbbbybbbbybbbbbbbbbyybybbbbbbbbbbbbbbbybbbbybybbbybbbbbb",
"bbbybbybbbbbbbbybbbbbbbbbbbbbybbbbbbbbybbbbbbbbybbbbbbbbbbbbbyby",
"bbbbbbbybbybbbbybbybybbybbbbbbbbbybbbbybbbbbbybbbbbbbybbbyybbbbb",
"dlrrrlrrrrrrrrlrdrrrrrrrlrrrrrlrdlrrrrrrrrrrrrlrdrrrrlrrrrrrrrrr",
"dlrrrrrrrrrlrrrldrrrrrlrrrrrrrlldrrrrrlrrrrrlrlrdrrrlrlrrrrrrrrr",
"drlrrrrrrrrrrrrrdrrrrrlrrlrrrrrldrlrrrlrrrrrrrrrdrlrlrrrrrrrrrrr",
"dllllrrrrrrrrrrrdrrrrrrrlrrrrrlrdlrrrrrrrrrrrrrrdrrrrrrrrrrrrrrr",
"drrrrrrrrrrrrrrrdrrlrrrrrrrrrrrldlrrrrrrrrrrrllrdrrrrrrrrrrrrrrr",
"drrrrrrrrrrrrrrrdrrrrrrrrlrrrrrrdrrlrrrlrlrrrlrrdrlrrrrrrlrlrrrr",
"bbbbbbbbbbbbbbbybbbbbbbbybbybbybbbbbbbbbbbybbbbbbybybyybbbbbybbb",
"bbbbbbbbbbybybbbbyybbbbbbbbybybbbbbbbybbbbbbybybbbbbbybbbbbbbbbb",
"bbbbyybbbybbbybbbbbbbybbbbybbbbybybbbbbbybbbybbbbbybbbbbbbbbbbbb",
"bbbbbbbbbbbbybbbbbbbyyybybbbbbbbbbbbbbbbybbbbybbbbbbybbbbbbbbbbb",
"bbybbbbbbbbbybbbbbbbbyybbbbbbyybbbbbbbbbbbbbbbbbbbbbbybbbbybbbbb",
"bbbbbbbbbbbbbbbbbbbbbbbbbbbbbbbbbybbbbbbybbbbbbbbbbybbbbbbybbbbb",
"dlrrrrllrrrrlrrrdrrrrrrlrrrrlrlrdrrrrrlrrrrrrlrrdrlrrlrrrrllrlrr",
"drrrrlrrrrrrrrlrdlrlrrrrrrrrlrrrdrrrrrrrrrlrrrlldlrlrrrrrrrlrrrr",
"drrrrrrrrrrlrrrrdrrrrrrrrrrrrrlrdrrrrrrrrrrrrrrrdrrrrrrrrrrrrrrr",
"drlrrrrrrrrlrlrldrrrrrrrrrrrlrrrdrrrrrlrrrrrrrrldlrrrrrrrrrrrrrr",
"drlrrrrrrrrrrrrrdrrrrrrrrrrrrrrldrrrrllrlrrlrrrrdlrrlrlrrlrrrlrr",
"drrrrrrrrlllrrrldrrrrrrrlrrlrrrrdrlrrrrrrrrrrlrrdrrrrrrrrrrrrrrr",
"bbbybbbbbbbbbbybbbbybybbbbbbbbbbbbbbbbbbbbbbbybbbbbbyyyybbbbbyyb",
"bbyybyybbbbbbbybbbybyybbbbbyybyybbbybbbbbbbbbbybbybybbbbbybbbbbb",
"bbbbbybbbbbyybbbbbbybbbbbbbbybbbbbbbbbbbbbbbbbbbbbbbbbbbbbbbbbbb",
"bbbybbbbbbyybbbybbbbbbybbbbbbbbbbybbbbybbbbbbbybbbbbybbbbbbbbbbb",
"bbbbbbbbbbbybbbbbbbbbbbbbbyyyybbbbbbbbbbbbybyybbbbbbbbbbbbbbybbb",
"bbbbbbybbyybbbbbbbbbbybbbbybybbbbbbbbbbbybybbybbbbbbybbbbbbbbbby",
"drrrrrrrlrrrrrrldrrrrrrrllrlrlrrdlrrrrrrrlrrrrrrdrlrrrlrrrrlrrrr",
"dlrlrlrrrrlrrrrrdrrrrrrrrrrrrrlldrrrrrlrrllrrllrdrrrrlrrlrrrrrrr",
"drrrrrrrrrrrrrrrdrrrrrrlrlrlrlrrdrllrrrlrrlrrrrldrlrrrlrrllrrrrr",
"drllrrrrrlllrrlldrrrrrrrrrrrrrrrdrrrrrrrrrrrrrrrdrlrrlrrrrrrrrrr",
"drrrrlrrrlrrlrlrdrrrlrrrrlrrrrrrdllrrrrrrrlrrrrrdlrrrrrrrrrlrrrl",
"drrlrrllrlrrrrrrdrlrllrrrrrrrlrrdrrrrrrrrrlrrrlrdrrlrrrlrrrrrrrr",
"bbbbbbbbybybbbybbbbybybbybbbbbbbbbbybbbbbbbyybbbbybbybbbbbbbbbbb",
"bbybbbybbbybbbbbbbbbybybbbbbbbbbbbbbbbbbbbbbbbybbbbbbbbbbbbbbybb",
"bbbybbbbbybyybbbbbbbbbybybbbbbbybbbbybbbybbbbbbbbybyybybbbyybbbb",
"bbbbbbbbbbbbbbbbbbbbbbbbbbbbybybbbbbbbbybybbbbbbbybybbbbbbbybbby",
"bbbbbyybbbbbbybbbbbbbbbybbybbbybbbbbybbbbbbbbbbbbbbbbbbybbbbyyby",
"bbbbbbbbbbybbbbbbbbybbbbbbybyybbbbbybbbbbybbbbbbbbbbbbbbbbbbbbbb",
"drrrrlrrrrlrrrrrdrllrrrrrrrrrrrrdrrrrrrrrrrrrrrrdrrrrrllrrrrlrrr",
"drrrrrrrrrrrrrrrdrrrrrrlrrlrrrlrdrrrrrrrrrlrrrrrdrlrrrrlrrrrllrr",
"drrrrrrrrrrrlrrrdrrrrrrrrrrrrrrrdrlrrrrrrrrrrrrldlrrrrrrlrrrrrrl",
"drrrrrrrrrrrlrlrdrrrlrrrrrrrlrlrdrrrlrrrrrrrrrrrdrlrrrrrrrrrrrlr",
"drrrrrrrlrrrrrrrdrrrrrrrrrlrrrrrdrrllllrrrrllrrrdllrrrrrlrrrrrrr",
"drllrrrrrrrlrrrrdrrrrrrrrrrrrrrrdrllrlrrrrrrrrrrdrlrrrrrrrrrrrrr",
"bbbbbbbbbbybbbbbbbbybbbbbbbbbbbbbbybbbbbbbbbbbbbbbbbbbybbbbyybbb",
"bbbbybybbbybbbbybyybbbbbbbbbbbbbbbbybbbbbbbybbbbbbbbbbbyyybbbybb",
"bbbbbbbbbbbbbbyybybbbbbbybbbbbbbbbbybbbbbbbybbbbbybbbbbybbbbbyby",
"bbbybbbbbbbbybbbbbbbbybbbbbybbbbbbbbbybbbbbbbbbbbbbbyybbbbbybbbb",
"bbbbbybbbybbybbbbbbbbybbbbbbbbbybbbbbbbbbbbbbbbbbybbbbbbbbbbbbbb",
"bbybbbbbbbbybbybbbbbbbbbbbybbbbbbbbbbbbbbbbbbbybbybbbbbbbbbbbbbb",
"drrrlrrrrlrrrrrrdrlrllrrrrrrrrrrdrrrrrlrrlrrrrlrdlrrrrrrrrrrrrrr",
"drlrrrlrrrrrrrrrdrrrrrrrrrrrrrrrdrlrrrlrrrrrrrrrdrrlrlllrrlrrrrr",
"dlrrlrrllrrrrrrrdrrrrrrrrrlrrllrdrrrrrrrlrrrrrrrdlrlrrrrrllrrrlr",
"dlrrrlrrrrrrrrlrdrrrrlrrrrrrrrrrdrrrrrrrrrrlrrrrdrrrlrrrrrrrrrll"
};
