/* XPM */
static const char *vending_machine_xpm[] = {
"64 64 16 1",
"  c #E7F2F1",
". c #D6EAE8",
"+ c #DDE6E5",
"@ c #C3DDDA",
"# c #F1B56A",
"$ c #B47E88",
"% c #795F3A",
"& c #655F68",
"* c #268A86",
"= c #AE4E72",
"- c #5D555E",
"; c #50464D",
": c #3A322B",
", c #324641",
"< c #73303C",
"> c #000000",
">>>>>>>>::::::::::::::::::::::::::::::::::::::::::::::::>>>>>>>>",
">>>>>>>:@@@@@@@@@@@@@@@@@@@@@@@@@@@@@@@@@@@:...........;:>>>>>>>",
">>>>>>>:@@@@@@@@@@@@@@@@@@@@@@@@@@@@@@@@@@@:............:>>>>>>>",
">>>>>>>:@$&&&&&&&&&&&&&&&&&&&&&&&&&&&&&&&@@:............:>>>>>>>",
">>>>>>>:@:&&&&&&&&:;:&&&&&&&&:;:&&&&&&&&&:@:............:>>>>>>>",
">>>>>>>:@:   @@   :-: @::::: :-:+  :::   :@:............:>>>>>>>",
">>>>>>>:@:  ::::  :-: :****: :-:+ :,**:  :@:............:>>>>>>>",
">>>>>>>:@:  :==:  :-: :*::,: :-:+@:***:@ :@:............:>>>>>>>",
">>>>>>>:@: :::::: :-: :*::*: :-:+-*****: :@:............:>>>>>>>",
">>>>>>>:@: :====: :-: :****: :-:+-*****: :@:............:>>>>>>>",
">>>>>>>:@: :====: :-: :****: :-:+-*****: :@:............:>>>>>>>",
">>>>>>>:@: :====: :-: :****: :-:+-*****: :@:............:>>>>>>>",
">>>>>>>:@: :====: :-: :****: :-:+-*****: :@:............:>>>>>>>",
">>>>>>>:@:::::::::::::::::::::::::::::::::@:.::::::::::.:>>>>>>>",
">>>>>>>:@:##:--:#######:--:#######%;-;;##:@:.:&&&&&&&&:.:>>>>>>>",
">>>>>>>:@:::::::::::::::::::::::::::::::::@:.:&&&&&&&&:.:>>>>>>>",
">>>>>>>:@:        :-:        :-:+        :@:.:&&&&&&&&:.:>>>>>>>",
">>>>>>>:@:        :-:   :::  :-:+        :@:.:&&&&&&&&:.:>>>>>>>",
">>>>>>>:@: ::::::::-:  :$$<- :-:+::::::: :@:.:&&&&&&&&:.:>>>>>>>",
">>>>>>>:@: ::::::::-:  ::::: :-:+::::::: :@:.:&&&&&&&&:.:>>>>>>>",
">>>>>>>:@: :$$$$$::-:  :$$$: :-:+:=====: :@:.:&&&&&&&&:.:>>>>>>>",
">>>>>>>:@: :$$$$$::-: @::::: :-:+:=====: :@:.:&&&&&&&&:.:>>>>>>>",
">>>>>>>:@: :$$$$$::-: :$$$$: :-:+:=====: :@:.:&&&&&&&&:.:>>>>>>>",
">>>>>>>:@: :$$$$$::-: :$$$$%-:-:+:=====: :@:.::::::::::.:>>>>>>>",
">>>>>>>:@: :$$$$$::-: :$$$$$::-:+:=====: :@:............:>>>>>>>",
">>>>>>>:@:::::::::::::::::::::::::::::::::@:............:>>>>>>>",
">>>>>>>:@:##:--:#######:--:#######%;-;;##:@:.::::::::::.:>>>>>>>",
">>>>>>>:@:::::::::::::::::::::::::::::::::@:.:==:==:==:.:>>>>>>>",
">>>>>>>:@:        :-:        :-:+        :@:.:==:==:==:.:>>>>>>>",
">>>>>>>:@: ::::::::-: ;::::: :-:+ :::::  :@:.::::::::::.:>>>>>>>",
">>>>>>>:@: ::::::::-: :$$$:$::-:+-*****: :@:.:##:##:##:.:>>>>>>>",
">>>>>>>:@: :****:::-: :$$:$$::-:+-:::::: :@:.:##:##:##:.:>>>>>>>",
">>>>>>>:@: :***::::-: :$:$$:::-:+-*****: :@:.::::::::::.:>>>>>>>",
">>>>>>>:@: :*,:**::-: ::$$:$::-:+-:::::: :@:.:$$:$$:$$:.:>>>>>>>",
">>>>>>>:@: :::**:::-: :$$:$$::-:+-%####: :@:.:$$:$$:$$:.:>>>>>>>",
">>>>>>>:@: :***:*::-: :$:$$$::-:+-:::::: :@:.::::::::::.:>>>>>>>",
">>>>>>>:@: :*::**::-: ::$$$$::-:+--===&: :@:....:**:....:>>>>>>>",
">>>>>>>:@:::::::::::::::::::::::::::::::::@:....:**:....:>>>>>>>",
">>>>>>>:@:##:--:#######:--:#######%;-;;##:@:....::::....:>>>>>>>",
">>>>>>>:@:##:--:#######:--:#######%;-;;##:@:............:>>>>>>>",
">>>>>>>:@:::::::::::::::::::::::::::::::::@:............:>>>>>>>",
">>>>>>>:@:;;;;;;;;;;;;;;;;;;;;;;;;;;;;;;;:@:............:>>>>>>>",
">>>>>>>:@:::::::::::::::::::::::::::::::::@:.::::::.:::.:>>>>>>>",
">>>>>>>:@@@@@@@@@@@@@@@@@@@@@@@@@@@@@@@@@@@:.:****:.:#:.:>>>>>>>",
">>>>>>>:@@@@@@@@@@@@@@@@@@@@@@@@@@@@@@@@@@@:.::::::.:#:.:>>>>>>>",
">>>>>>>:@@@@@@@@@@@@@@@@@@@@@@@@@@@@@@@@@@@:.::::::.:::.:>>>>>>>",
">>>>>>>:@@@@@@@@@@@@@@@@@@@@@@@@@@@@@@@@@@@:............:>>>>>>>",
">>>>>>>:@:::::::::::::::::::::::::::::::::@:............:>>>>>>>",
">>>>>>>:@:&&&&&&&&&&&&&&&&&&&&&&&&&&&&&&&:@:............:>>>>>>>",
">>>>>>>:@:&&&&&&&&&&&&&&&&&&&&&&&&&&&&&&&:@:............:>>>>>>>",
">>>>>>>:@:&&&&&&&&&&&&&&&&&&&&&&&&&&&&&&&:@:............:>>>>>>>",
">>>>>>>:@:&&&&&&&&&&&&&&&&&&&&&&&&&&&&&&&:@:............:>>>>>>>",
">>>>>>>:@:&&&&&&&&&&&&&&&&&&&&&&&&&&&&&&&:@:............:>>>>>>>",
">>>>>>>:@:&&&&&&&&&&&&&&&&&&&&&&&&&&&&&&&:@:............:>>>>>>>",
">>>>>>>:@:&&&&&&&&&&&&&&&&&&&&&&&&&&&&&&&:@:............:>>>>>>>",
">>>>>>>:@:&&&&&&&&&&&&&&&&&&&&&&&&&&&&&&&:@:............:>>>>>>>",
">>>>>>>:@::::::::::::::::::::::::::::::::;@:............:>>>>>>>",
">>>>>>>:@@@@@@@@@@@@@@@@@@@@@@@@@@@@@@@@@@@:............:>>>>>>>",
">>>>>>>:@@@@@@@@@@@@@@@@@@@@@@@@@@@@@@@@@@@:............:>>>>>>>",
">>>>>>>:@@@@@@@@@@@@@@@@@@@@@@@@@@@@@@@@@@@:............:>>>>>>>",
">>>>>>>>::::::::::::::::::::::::::::::::::::::::::::::::>>>>>>>>",
">>>>>>>>>:&&&&:>>>>>>>>>>>>>>>>>>>>>>>>>>>>>>>>>:&&&&:>>>>>>>>>>",
">>>>>>>>>:&&&&:>>>>>>>>>>>>>>>>>>>>>>>>>>>>>>>>>:&&&&:>>>>>>>>>>",
">>>>>>>>>::::::>>>>>>>>>>>>>>>>>>>>>>>>>>>>>>>>>:::::>>>>>>>>>>>"
};