/* XPM */
static char *zombieman[] = {
/* columns rows colors chars-per-pixel */
"64 64 57 1 ",
"  c #FF00FF",
"  c #936B57",
". c #946C58",
"X c #916955",
"o c #9B735F",
"* c #966E5A",
"O c #976F5B",
"o c #926A56",
"O c #906854",
"+ c #98705C",
"@ c #9C7460",
"# c #956D59",
"$ c #9A725E",
"% c #99715D",
"& c #63634F",
"= c #51513D",
"- c #61614D",
"; c #5F5F4B",
": c #62624E",
"> c #575743",
"< c #5A5A46",
", c #53533F",
"1 c #60604C",
"2 c #595945",
"3 c #5D5D49",
"4 c #646450",
"5 c #565642",
"6 c #5E5E4A",
"7 c #585844",
"8 c #5B5B47",
"9 c #545440",
"0 c #5C5C48",
"a c #52523E",
"b c #555541",
"c c #8E6652",
"d c #8F6753",
"e c #50503C",
"f c #9D7561",
"g c #282828",
"h c #9E7662",
"i c #3F3F35",
"j c #39392F",
"k c #3E3E34",
"l c #37372D",
"m c #3B3B31",
"n c #3A3A30",
"o c #434339",
"p c #36362C",
"q c #424238",
"r c #3D3D33",
"s c #35352B",
"t c #44443A",
"u c #34342A",
"v c #404036",
"w c #3C3C32",
"x c #38382E",
"y c #414137",
/* pixels */
"                                                                ",
"                                                                ",
"                                                                ",
"                                                                ",
"                                                                ",
"                             .Xo*OoX                            ",
"                            XO*+.@@O                            ",
"                           ++#.@oX. O$                          ",
"                          @.@. o..$o#X%                         ",
"                          #$*+ o O.X+.O                         ",
"                          .%o.@+ **%.*O                         ",
"                          o ..@OXOO$.++                         ",
"                         $Oo#o$ X* $$O.o                        ",
"                          #*o%#$+ #XOo                          ",
"                          .@%% X#o.OOO#                         ",
"                          oX.o$#O#.#o@$                         ",
"                          *%$X.% O.o.*%                         ",
"                           o#%O#OOo#@@                          ",
"                            #.%XO * X                           ",
"                             OOOoo%$                            ",
"                      &=-;:><=,12345;5>63;                      ",
"                      =>36>435;5==77>15>37                      ",
"              573238669<=<:,:044=;0a35:b<2+cc$o#od              ",
"              ,>;-9::8;4<31547<0;a745=0&97o O#o+%               ",
"              87;0>7a-=b46:;005e5be&7,00>-%%*+do%.              ",
"              ;<0;;07<=5b&<-;16ea=&,;-7&9=ffXO. oo              ",
"              <:9a6<858a1e28aa-60520>;0,a,d%gggggggggggggg      ",
"              09>97<7-&81336a4542;3,-b8bb9Ofgggggggggggggg      ",
"              b0a17>92<;<7-ebe42,-,;&;1a1>oOgggggggggggggg      ",
"              :bb0859>328>b4e=&<-6:216&&60O.gggggggggggggg      ",
"              a>7<,00397&8<93a&9&b285:8&aa. gggggggggggggg      ",
"              >>7,,>,<04b<48<b2e&e1a8,bb:;hhhoOOh+              ",
"              -b756--0:a,b4;>&20&>;>28><-4 .hddOoo              ",
"              3;6,,>5316010<263:e7b-6-&800oXh+h+*o              ",
"              28237363&e91a648&2a7;>4;&a9>XOc d*oO              ",
"              b273>7aaa29=b0:&--7e1>b,5=<a%oh%@#@               ",
"              b780-,86,7=42&4b9439a-8e-913fc.*@+ O              ",
"              >56133a1952;1a0bb710-20<b0=3 +O+.fO*              ",
"              51a;7b08e7e29ab,&e>>-e;-b60<                      ",
"              ,9->:,>2b1:5,;&8243&=457::2;                      ",
"                      4<a><,=&<1;8ab=;1-&>                      ",
"                      =5a<&92,11ea>&7&e=e;                      ",
"                        ijklmknj lmmopjjn                       ",
"                        qlrstusu untnmuto                       ",
"                        jmmivvmq kiwvxklw                       ",
"                        yrtpkslj wlsksvpn                       ",
"                        syuvjysm msovippx                       ",
"                        iktixuii qytvljxs                       ",
"                        lvnoiypv jqtoqiym                       ",
"                        jpqvtnup wwuwvkrl                       ",
"                        rlxxqqiy jtnjvxjn                       ",
"                        kvrvlkvt ppruptql                       ",
"                        poyimjyr tuwwnnlw                       ",
"                        lkstmjom vwtwulvi                       ",
"                        tiyqylou joknomjj                       ",
"                        yiownxki ksnnqtkx                       ",
"                        xwoxovoi jityqikp                       ",
"                        tsywjjuq qowwxlwq                       ",
"                        rxsumkxk toqpwilr                       ",
"                        kqmwspsq ujvtjvoj                       ",
"                                                                ",
"                                                                ",
"                                                                ",
"                                                                "
};
